;FLAVOR:Marlin
;TIME:25405
;Filament used: 27.266m
;Layer height: 0.2
;MINX:49.001
;MINY:55.501
;MINZ:0.2
;MAXX:171
;MAXY:164.499
;MAXZ:10
;Generated with Cura_SteamEngine 5.2.1
M82 ;absolute extrusion mode
; Ender 3 Custom Start G-code
G92 E0 ; Reset Extruder
G28 ; Home all axes
M104 S175 ; Start heating up the nozzle most of the way
M190 S60 ; Start heating the bed, wait until target temperature reached
M109 S200 ; Finish heating the nozzle
G1 Z2.0 F3000 ; Move Z Axis up little to prevent scratching of Heat Bed
G1 X0.1 Y20 Z0.3 F5000.0 ; Move to start position
G1 X0.1 Y200.0 Z0.3 F1500.0 E15 ; Draw the first line
G1 X0.4 Y200.0 Z0.3 F5000.0 ; Move to side a little
G1 X0.4 Y20 Z0.3 F1500.0 E30 ; Draw the second line
G92 E0 ; Reset Extruder
G1 Z2.0 F3000 ; Move Z Axis up little to prevent scratching of Heat Bed
G1 X5 Y20 Z0.3 F5000.0 ; Move over to prevent blob squish
G92 E0
G92 E0
G1 F1500 E-6.5
;LAYER_COUNT:50
;LAYER:0
M107
G0 F6000 X55.53 Y61.302 Z0.2
;TYPE:SKIRT
G1 F1500 E0
G1 F1200 X56.099 Y60.797 E0.0253
G1 X57.062 Y59.989 E0.06711
G1 X58.109 Y59.212 E0.11048
G1 X58.772 Y58.788 E0.13665
G1 X59.824 Y58.157 E0.17746
G1 X61.042 Y57.526 E0.22308
G1 X61.701 Y57.241 E0.24696
G1 X62.795 Y56.799 E0.2862
G1 X64.066 Y56.374 E0.33078
G1 X64.806 Y56.182 E0.35621
G1 X65.956 Y55.916 E0.39547
G1 X67.285 Y55.693 E0.44029
G1 X67.97 Y55.625 E0.46318
G1 X68.406 Y55.591 E0.47773
G1 X69.504 Y55.524 E0.51431
G1 X70.161 Y55.504 E0.53618
G1 X149.449 Y55.501 E3.17331
G1 X150.155 Y55.511 E3.19679
G1 X150.73 Y55.534 E3.21593
G1 X151.601 Y55.592 E3.24496
G1 X152.604 Y55.683 E3.27846
G1 X153.803 Y55.864 E3.31879
G1 X154.601 Y56.038 E3.34596
G1 X155.745 Y56.324 E3.38518
G1 X156.954 Y56.702 E3.42731
G1 X157.666 Y56.98 E3.45273
G1 X158.828 Y57.472 E3.4947
G1 X160.066 Y58.09 E3.54072
G1 X160.745 Y58.492 E3.56697
G1 X161.71 Y59.096 E3.60483
G1 X162.754 Y59.838 E3.64743
G1 X163.241 Y60.234 E3.66831
G1 X163.773 Y60.689 E3.69159
G1 X164.345 Y61.193 E3.71695
G1 X165.207 Y62.041 E3.75717
G1 X165.703 Y62.599 E3.782
G1 X166.511 Y63.562 E3.82381
G1 X167.276 Y64.59 E3.86643
G1 X167.699 Y65.249 E3.89247
G1 X168.325 Y66.29 E3.93287
G1 X168.917 Y67.418 E3.97524
G1 X169.216 Y68.098 E3.99995
G1 X169.692 Y69.27 E4.04202
G1 X170.115 Y70.523 E4.08601
G1 X170.302 Y71.239 E4.11062
G1 X170.582 Y72.444 E4.15177
G1 X170.807 Y73.787 E4.19706
G1 X170.881 Y74.559 E4.22286
G1 X170.963 Y75.734 E4.26203
G1 X170.988 Y76.299 E4.28084
G1 X171 Y77.047 E4.30572
G1 X170.999 Y142.949 E6.49763
G1 X170.989 Y143.655 E6.52112
G1 X170.966 Y144.23 E6.54026
G1 X170.908 Y145.101 E6.56929
G1 X170.819 Y146.09 E6.60232
G1 X170.638 Y147.295 E6.64285
G1 X170.481 Y148.014 E6.66732
G1 X170.181 Y149.224 E6.70879
G1 X169.798 Y150.454 E6.75163
G1 X169.52 Y151.166 E6.77706
G1 X169.028 Y152.328 E6.81903
G1 X168.445 Y153.504 E6.86268
G1 X168.083 Y154.121 E6.88648
G1 X167.414 Y155.194 E6.92853
G1 X166.657 Y156.262 E6.97207
G1 X166.171 Y156.853 E6.99752
G1 X165.355 Y157.791 E7.03887
G1 X164.464 Y158.702 E7.08125
G1 X163.901 Y159.203 E7.10632
G1 X162.939 Y160.01 E7.14808
G1 X161.911 Y160.775 E7.1907
G1 X161.268 Y161.188 E7.21612
G1 X160.232 Y161.813 E7.25636
G1 X159.049 Y162.432 E7.30077
G1 X158.313 Y162.753 E7.32748
G1 X157.204 Y163.201 E7.36726
G1 X155.934 Y163.626 E7.4118
G1 X155.196 Y163.818 E7.43717
G1 X154.047 Y164.084 E7.47639
G1 X152.713 Y164.307 E7.52138
G1 X152.03 Y164.375 E7.54421
G1 X151.594 Y164.409 E7.55875
G1 X150.496 Y164.476 E7.59534
G1 X149.839 Y164.496 E7.6172
G1 X70.551 Y164.499 E10.25433
G1 X69.845 Y164.489 E10.27781
G1 X69.27 Y164.466 E10.29695
G1 X68.399 Y164.408 E10.32599
G1 X67.396 Y164.317 E10.35949
G1 X66.197 Y164.136 E10.39982
G1 X65.399 Y163.962 E10.42698
G1 X64.255 Y163.676 E10.4662
G1 X63.046 Y163.298 E10.50833
G1 X62.334 Y163.02 E10.53376
G1 X61.172 Y162.528 E10.57573
G1 X59.934 Y161.91 E10.62175
G1 X59.258 Y161.51 E10.64787
G1 X58.294 Y160.907 E10.68569
G1 X57.242 Y160.16 E10.7286
G1 X56.759 Y159.766 E10.74934
G1 X56.227 Y159.311 E10.77262
G1 X55.655 Y158.807 E10.79798
G1 X54.794 Y157.961 E10.83812
G1 X54.296 Y157.4 E10.86307
G1 X53.489 Y156.438 E10.90484
G1 X52.724 Y155.41 E10.94746
G1 X52.292 Y154.736 E10.97408
G1 X51.655 Y153.673 E11.0153
G1 X51.04 Y152.489 E11.05968
G1 X50.748 Y151.816 E11.08408
G1 X50.3 Y150.708 E11.12383
G1 X49.872 Y149.428 E11.16872
G1 X49.681 Y148.69 E11.19407
G1 X49.415 Y147.538 E11.2334
G1 X49.196 Y146.237 E11.27728
G1 X49.133 Y145.618 E11.29797
G1 X49.093 Y145.12 E11.31459
G1 X49.024 Y143.996 E11.35204
G1 X49.004 Y143.339 E11.3739
G1 X49.001 Y77.051 E13.57865
G1 X49.011 Y76.344 E13.60217
G1 X49.034 Y75.768 E13.62134
G1 X49.092 Y74.898 E13.65034
G1 X49.181 Y73.912 E13.68327
G1 X49.375 Y72.64 E13.72607
G1 X49.537 Y71.908 E13.751
G1 X49.822 Y70.764 E13.79021
G1 X50.202 Y69.546 E13.83265
G1 X50.48 Y68.834 E13.85807
G1 X50.972 Y67.672 E13.90004
G1 X51.565 Y66.477 E13.94441
G1 X51.867 Y65.96 E13.96433
G1 X52.253 Y65.33 E13.9889
G1 X52.635 Y64.728 E14.01262
G1 X53.344 Y63.737 E14.05314
G1 X53.797 Y63.185 E14.07689
G1 X54.622 Y62.233 E14.11879
G1 X55.53 Y61.302 E14.16205
G0 F6000 X55.8 Y61.598
G1 F1200 X56.356 Y61.104 E14.18678
G1 X57.319 Y60.296 E14.22859
G1 X58.328 Y59.546 E14.27041
G1 X58.978 Y59.131 E14.29606
G1 X60.03 Y58.5 E14.33686
G1 X61.203 Y57.892 E14.3808
G1 X61.851 Y57.612 E14.40428
G1 X62.945 Y57.17 E14.44353
G1 X64.169 Y56.76 E14.48646
G1 X64.896 Y56.572 E14.51144
G1 X66.046 Y56.306 E14.55069
G1 X67.327 Y56.091 E14.5939
G1 X68.001 Y56.024 E14.61642
G1 X68.627 Y55.977 E14.6373
G1 X69.528 Y55.923 E14.66733
G1 X70.161 Y55.904 E14.68839
G1 X149.292 Y55.9 E17.3203
G1 X150.149 Y55.911 E17.3488
G1 X150.703 Y55.933 E17.36724
G1 X151.574 Y55.991 E17.39628
G1 X152.566 Y56.081 E17.42941
G1 X153.722 Y56.255 E17.46829
G1 X154.504 Y56.426 E17.49491
G1 X155.648 Y56.712 E17.53413
G1 X156.813 Y57.076 E17.57473
G1 X157.51 Y57.348 E17.59961
G1 X158.672 Y57.84 E17.64158
G1 X159.865 Y58.436 E17.68594
G1 X160.533 Y58.831 E17.71175
G1 X161.498 Y59.435 E17.74961
G1 X162.504 Y60.15 E17.79066
G1 X162.982 Y60.539 E17.81116
G1 X163.509 Y60.989 E17.83421
G1 X164.081 Y61.493 E17.85957
G1 X164.912 Y62.31 E17.89833
G1 X165.396 Y62.856 E17.92259
G1 X166.204 Y63.819 E17.96441
G1 X166.942 Y64.809 E18.00548
G1 X167.356 Y65.455 E18.03099
G1 X167.982 Y66.496 E18.0714
G1 X168.553 Y67.583 E18.11224
G1 X168.845 Y68.248 E18.13639
G1 X169.321 Y69.42 E18.17846
G1 X169.729 Y70.628 E18.22087
G1 X169.912 Y71.33 E18.245
G1 X170.192 Y72.535 E18.28615
G1 X170.409 Y73.829 E18.32979
G1 X170.482 Y74.587 E18.35512
G1 X170.564 Y75.762 E18.39429
G1 X170.588 Y76.306 E18.4124
G1 X170.6 Y77.047 E18.43705
G1 X170.599 Y142.943 E20.62876
G1 X170.589 Y143.649 E20.65224
G1 X170.567 Y144.203 E20.67069
G1 X170.509 Y145.074 E20.69972
G1 X170.421 Y146.053 E20.73241
G1 X170.246 Y147.214 E20.77146
G1 X170.092 Y147.918 E20.79543
G1 X169.792 Y149.128 E20.8369
G1 X169.424 Y150.313 E20.87817
G1 X169.152 Y151.01 E20.90305
G1 X168.66 Y152.172 E20.94502
G1 X168.098 Y153.306 E20.98712
G1 X167.744 Y153.909 E21.01037
G1 X167.075 Y154.982 E21.05243
G1 X166.345 Y156.011 E21.09439
G1 X165.869 Y156.59 E21.11932
G1 X165.053 Y157.528 E21.16067
G1 X164.195 Y158.406 E21.2015
G1 X163.643 Y158.897 E21.22607
G1 X162.681 Y159.704 E21.26784
G1 X161.691 Y160.441 E21.30889
G1 X161.062 Y160.845 E21.33375
G1 X160.026 Y161.47 E21.37399
G1 X158.885 Y162.067 E21.41682
G1 X158.163 Y162.382 E21.44302
G1 X157.054 Y162.83 E21.48281
G1 X155.831 Y163.24 E21.52571
G1 X155.106 Y163.428 E21.55062
G1 X153.957 Y163.694 E21.58985
G1 X152.671 Y163.909 E21.63321
G1 X151.999 Y163.976 E21.65567
G1 X151.373 Y164.023 E21.67655
G1 X150.472 Y164.077 E21.70657
G1 X149.839 Y164.096 E21.72764
G1 X70.557 Y164.099 E24.36457
G1 X69.851 Y164.089 E24.38805
G1 X69.297 Y164.067 E24.40649
G1 X68.426 Y164.009 E24.43553
G1 X67.434 Y163.919 E24.46866
G1 X66.278 Y163.745 E24.50754
G1 X65.496 Y163.574 E24.53416
G1 X64.352 Y163.288 E24.57338
G1 X63.187 Y162.924 E24.61398
G1 X62.49 Y162.652 E24.63886
G1 X61.328 Y162.16 E24.68083
G1 X60.135 Y161.564 E24.72519
G1 X59.47 Y161.171 E24.75088
G1 X58.506 Y160.568 E24.7887
G1 X57.493 Y159.848 E24.83003
G1 X57.018 Y159.461 E24.85041
G1 X56.491 Y159.011 E24.87346
G1 X55.919 Y158.507 E24.89882
G1 X55.09 Y157.691 E24.93751
G1 X54.602 Y157.142 E24.96194
G1 X53.795 Y156.18 E25.0037
G1 X53.058 Y155.191 E25.04472
G1 X52.636 Y154.531 E25.07078
G1 X51.999 Y153.468 E25.112
G1 X51.406 Y152.327 E25.15477
G1 X51.119 Y151.666 E25.17873
G1 X50.671 Y150.558 E25.21848
G1 X50.258 Y149.325 E25.26173
G1 X50.071 Y148.6 E25.28664
G1 X49.805 Y147.448 E25.32596
G1 X49.594 Y146.195 E25.36822
G1 X49.532 Y145.586 E25.38858
G1 X49.477 Y144.873 E25.41237
G1 X49.423 Y143.972 E25.44239
G1 X49.404 Y143.339 E25.46345
G1 X49.401 Y77.057 E27.668
G1 X49.411 Y76.35 E27.69152
G1 X49.433 Y75.795 E27.70999
G1 X49.491 Y74.925 E27.73899
G1 X49.579 Y73.949 E27.77158
G1 X49.766 Y72.724 E27.8128
G1 X49.925 Y72.005 E27.83729
G1 X50.21 Y70.861 E27.8765
G1 X50.576 Y69.687 E27.91741
G1 X50.848 Y68.99 E27.94229
G1 X51.34 Y67.828 E27.98426
G1 X51.912 Y66.677 E28.02701
G1 X52.208 Y66.169 E28.04656
G1 X52.491 Y65.705 E28.06464
G1 X52.973 Y64.943 E28.09463
G1 X53.656 Y63.987 E28.13371
G1 X54.099 Y63.447 E28.15694
G1 X54.924 Y62.495 E28.19884
G1 X55.8 Y61.598 E28.24054
G0 F6000 X56.069 Y61.894
G1 F1200 X56.613 Y61.41 E28.26476
G1 X57.576 Y60.602 E28.30657
G1 X58.547 Y59.881 E28.34679
G1 X59.183 Y59.474 E28.37191
G1 X60.235 Y58.843 E28.41271
G1 X61.365 Y58.258 E28.45503
G1 X62.001 Y57.983 E28.47808
G1 X63.095 Y57.541 E28.51732
G1 X64.273 Y57.146 E28.55865
G1 X64.986 Y56.961 E28.58314
G1 X66.136 Y56.695 E28.6224
G1 X67.369 Y56.489 E28.66398
G1 X68.032 Y56.423 E28.68614
G1 X68.651 Y56.376 E28.70679
G1 X69.552 Y56.322 E28.73681
G1 X70.161 Y56.304 E28.75708
G1 X149.292 Y56.3 E31.38898
G1 X150.143 Y56.311 E31.41729
G1 X150.677 Y56.333 E31.43507
G1 X151.832 Y56.413 E31.47357
G1 X152.529 Y56.479 E31.49686
G1 X153.641 Y56.647 E31.53426
G1 X154.407 Y56.815 E31.56035
G1 X155.551 Y57.101 E31.59957
G1 X156.672 Y57.451 E31.63863
G1 X157.354 Y57.716 E31.66296
G1 X158.516 Y58.208 E31.70493
G1 X159.664 Y58.782 E31.74762
G1 X160.321 Y59.17 E31.773
G1 X161.286 Y59.774 E31.81086
G1 X162.254 Y60.462 E31.85036
G1 X162.723 Y60.843 E31.87046
G1 X163.113 Y61.175 E31.8875
G1 X163.816 Y61.793 E31.91863
G1 X164.616 Y62.58 E31.95595
G1 X165.09 Y63.113 E31.97968
G1 X165.898 Y64.076 E32.02149
G1 X166.607 Y65.029 E32.06099
G1 X167.013 Y65.662 E32.08601
G1 X167.639 Y66.703 E32.12641
G1 X168.188 Y67.748 E32.16567
G1 X168.474 Y68.399 E32.18932
G1 X168.95 Y69.571 E32.23139
G1 X169.343 Y70.733 E32.27219
G1 X169.522 Y71.42 E32.2958
G1 X169.802 Y72.625 E32.33695
G1 X170.011 Y73.87 E32.37894
G1 X170.083 Y74.615 E32.40383
G1 X170.165 Y75.79 E32.44301
G1 X170.188 Y76.314 E32.46045
G1 X170.2 Y77.047 E32.48484
G1 X170.199 Y142.937 E34.67635
G1 X170.189 Y143.643 E34.69983
G1 X170.167 Y144.177 E34.71761
G1 X170.087 Y145.323 E34.75582
G1 X170.022 Y146.016 E34.77897
G1 X169.855 Y147.133 E34.81653
G1 X169.704 Y147.822 E34.83999
G1 X169.404 Y149.032 E34.88145
G1 X169.049 Y150.172 E34.92117
G1 X168.784 Y150.854 E34.9455
G1 X168.292 Y152.016 E34.98747
G1 X167.751 Y153.107 E35.02798
G1 X167.404 Y153.698 E35.05077
G1 X166.735 Y154.771 E35.09283
G1 X166.033 Y155.761 E35.13319
G1 X165.568 Y156.328 E35.15758
G1 X164.752 Y157.266 E35.19893
G1 X163.926 Y158.111 E35.23823
G1 X163.386 Y158.591 E35.26226
G1 X162.424 Y159.398 E35.30403
G1 X161.471 Y160.107 E35.34354
G1 X160.855 Y160.503 E35.36789
G1 X159.819 Y161.128 E35.40813
G1 X158.722 Y161.702 E35.44931
G1 X158.014 Y162.011 E35.47501
G1 X156.905 Y162.459 E35.51479
G1 X155.727 Y162.854 E35.55611
G1 X155.016 Y163.038 E35.58054
G1 X153.867 Y163.304 E35.61977
G1 X152.63 Y163.511 E35.66148
G1 X151.968 Y163.577 E35.68361
G1 X151.349 Y163.624 E35.70426
G1 X150.448 Y163.678 E35.73428
G1 X149.839 Y163.696 E35.75454
G1 X70.563 Y163.699 E38.39127
G1 X69.857 Y163.689 E38.41476
G1 X69.323 Y163.667 E38.43253
G1 X68.168 Y163.587 E38.47104
G1 X67.471 Y163.521 E38.49432
G1 X66.359 Y163.353 E38.53173
G1 X65.593 Y163.185 E38.55781
G1 X64.449 Y162.899 E38.59703
G1 X63.328 Y162.549 E38.63609
G1 X62.646 Y162.284 E38.66043
G1 X61.484 Y161.792 E38.7024
G1 X60.336 Y161.218 E38.74509
G1 X59.682 Y160.832 E38.77035
G1 X58.718 Y160.229 E38.80816
G1 X57.743 Y159.536 E38.84795
G1 X57.277 Y159.157 E38.86793
G1 X56.887 Y158.825 E38.88496
G1 X56.184 Y158.207 E38.9161
G1 X55.386 Y157.422 E38.95333
G1 X54.908 Y156.885 E38.97724
G1 X54.101 Y155.923 E39.019
G1 X53.393 Y154.971 E39.05846
G1 X52.979 Y154.325 E39.08398
G1 X52.342 Y153.262 E39.1252
G1 X51.771 Y152.164 E39.16636
G1 X51.49 Y151.516 E39.18985
G1 X51.042 Y150.408 E39.2296
G1 X50.645 Y149.221 E39.27123
G1 X50.461 Y148.51 E39.29566
G1 X50.195 Y147.358 E39.33498
G1 X49.991 Y146.152 E39.37567
G1 X49.931 Y145.554 E39.39566
G1 X49.876 Y144.849 E39.41918
G1 X49.822 Y143.948 E39.4492
G1 X49.804 Y143.339 E39.46946
G1 X49.801 Y77.063 E41.67381
G1 X49.811 Y76.356 E41.69733
G1 X49.833 Y75.822 E41.7151
G1 X49.912 Y74.683 E41.75308
G1 X49.977 Y73.986 E41.77636
G1 X50.157 Y72.807 E41.81603
G1 X50.314 Y72.101 E41.84008
G1 X50.599 Y70.957 E41.8793
G1 X50.951 Y69.828 E41.91863
G1 X51.216 Y69.146 E41.94296
G1 X51.708 Y67.984 E41.98493
G1 X52.259 Y66.876 E42.02609
G1 X52.55 Y66.377 E42.0453
G1 X52.929 Y65.759 E42.06942
G1 X53.311 Y65.157 E42.09313
G1 X53.968 Y64.238 E42.1307
G1 X54.402 Y63.709 E42.15346
G1 X55.227 Y62.757 E42.19536
G1 X56.069 Y61.894 E42.23546
G1 F1500 E35.73546
;MESH:BLDC mount_4steers.STL
G0 F6000 X68.653 Y78.102
G0 X73.347 Y85.901
;TYPE:WALL-INNER
G1 F1500 E42.23546
G1 F1200 X72.613 Y86.06 E42.26044
G1 X71.832 Y86.096 E42.28645
G1 X71.033 Y85.998 E42.31322
G1 X70.314 Y85.779 E42.33822
G1 X69.612 Y85.433 E42.36425
G1 X68.977 Y84.97 E42.39039
G1 X68.419 Y84.394 E42.41706
G1 X67.981 Y83.746 E42.44308
G1 X67.66 Y83.031 E42.46914
G1 X67.465 Y82.282 E42.49489
G1 X67.398 Y81.526 E42.52013
G1 X67.463 Y80.727 E42.54679
G1 X67.66 Y79.966 E42.57294
G1 X67.984 Y79.25 E42.59908
G1 X68.43 Y78.597 E42.62538
G1 X68.968 Y78.04 E42.65113
G1 X69.576 Y77.59 E42.67629
G1 X70.214 Y77.263 E42.70014
G1 X70.306 Y77.226 E42.70343
G1 X70.982 Y77.014 E42.727
G1 X71.805 Y76.902 E42.75462
G1 X72.583 Y76.934 E42.78052
G1 X73.333 Y77.096 E42.80604
G1 X74.044 Y77.376 E42.83146
G1 X74.714 Y77.782 E42.85751
G1 X75.32 Y78.311 E42.88427
G1 X75.797 Y78.9 E42.90948
G1 X76.189 Y79.596 E42.93605
G1 X76.441 Y80.298 E42.96085
G1 X76.583 Y81.105 E42.98811
G1 X76.6 Y81.47 E43.00026
G1 X76.583 Y81.906 E43.01477
G1 X76.451 Y82.667 E43.04046
G1 X76.21 Y83.354 E43.06468
G1 X75.814 Y84.071 E43.09192
G1 X75.341 Y84.663 E43.11712
G1 X74.718 Y85.213 E43.14476
G1 X74.078 Y85.604 E43.16971
G1 X73.347 Y85.901 E43.19595
G0 F6000 X73.231 Y85.518
;TYPE:WALL-OUTER
G1 F1200 X72.553 Y85.664 E43.21902
G1 X71.833 Y85.695 E43.24299
G1 X71.097 Y85.602 E43.26766
G1 X70.461 Y85.407 E43.28979
G1 X69.834 Y85.097 E43.31305
G1 X69.232 Y84.658 E43.33783
G1 X68.742 Y84.152 E43.36126
G1 X68.325 Y83.534 E43.38606
G1 X68.035 Y82.882 E43.40979
G1 X67.859 Y82.213 E43.4328
G1 X67.801 Y81.546 E43.45507
G1 X67.858 Y80.806 E43.47975
G1 X68.045 Y80.085 E43.50453
G1 X68.325 Y79.465 E43.52715
G1 X68.734 Y78.857 E43.55152
G1 X69.236 Y78.338 E43.57554
G1 X69.792 Y77.927 E43.59854
G1 X70.395 Y77.62 E43.62104
G1 X71.082 Y77.402 E43.64501
G1 X71.805 Y77.305 E43.66928
G1 X72.549 Y77.336 E43.69404
G1 X73.232 Y77.486 E43.7173
G1 X73.85 Y77.729 E43.73939
G1 X74.461 Y78.096 E43.76309
G1 X75.032 Y78.591 E43.78823
G1 X75.464 Y79.125 E43.81107
G1 X75.826 Y79.764 E43.8355
G1 X76.057 Y80.409 E43.85829
