;FLAVOR:Marlin
;TIME:4026
;Filament used: 2.78005m
;Layer height: 0.2
;MINX:82.239
;MINY:82.202
;MINZ:0.2
;MAXX:137.784
;MAXY:137.743
;MAXZ:35
;Generated with Cura_SteamEngine main
M82 ;absolute extrusion mode
; Ender 3 Custom Start G-code
G92 E0 ; Reset Extruder
G28 ; Home all axes
M104 S175 ; Start heating up the nozzle most of the way
M190 S60 ; Start heating the bed, wait until target temperature reached
M109 S200 ; Finish heating the nozzle
G1 Z2.0 F3000 ; Move Z Axis up little to prevent scratching of Heat Bed
G1 X0.1 Y20 Z0.3 F5000.0 ; Move to start position
G1 X0.1 Y200.0 Z0.3 F1500.0 E15 ; Draw the first line
G1 X0.4 Y200.0 Z0.3 F5000.0 ; Move to side a little
G1 X0.4 Y20 Z0.3 F1500.0 E30 ; Draw the second line
G92 E0 ; Reset Extruder
G1 Z2.0 F3000 ; Move Z Axis up little to prevent scratching of Heat Bed
G1 X5 Y20 Z0.3 F5000.0 ; Move over to prevent blob squish
G92 E0
G92 E0
G1 F1500 E-6.5
;LAYER_COUNT:175
;LAYER:0
M107
G0 F6000 X90.9 Y89.832 Z0.2
G0 X87.606 Y93.567
;TYPE:SKIRT
G1 F1500 E0
G1 F1200 X88.064 Y92.924 E0.02626
G1 X88.459 Y92.464 E0.04642
G1 X90.9 Y89.832 E0.16582
G1 X91.466 Y89.281 E0.19209
G1 X91.939 Y88.896 E0.21237
G1 X94.804 Y86.747 E0.33149
G1 X95.459 Y86.306 E0.35775
G1 X95.997 Y86.01 E0.37818
G1 X99.208 Y84.405 E0.49758
G1 X99.931 Y84.088 E0.52383
G1 X100.507 Y83.895 E0.54404
G1 X103.946 Y82.89 E0.6632
G1 X104.714 Y82.707 E0.68946
G1 X105.319 Y82.62 E0.70979
G1 X108.887 Y82.245 E0.82912
G1 X109.675 Y82.202 E0.85536
G1 X110.285 Y82.224 E0.87567
G1 X113.861 Y82.492 E0.99494
G1 X114.644 Y82.591 E1.02119
G1 X115.241 Y82.721 E1.04151
G1 X118.71 Y83.623 E1.16073
G1 X119.463 Y83.86 E1.18698
G1 X120.026 Y84.095 E1.20727
G1 X123.277 Y85.601 E1.32644
G1 X123.975 Y85.968 E1.35267
G1 X124.488 Y86.3 E1.37299
G1 X127.423 Y88.366 E1.49237
G1 X128.045 Y88.852 E1.51863
G1 X128.49 Y89.27 E1.53893
G1 X131.004 Y91.822 E1.65808
G1 X131.529 Y92.412 E1.68435
G1 X131.891 Y92.901 E1.70458
G1 X133.913 Y95.866 E1.82395
G1 X134.324 Y96.54 E1.8502
G1 X134.594 Y97.088 E1.87052
G1 X136.052 Y100.362 E1.98973
G1 X136.337 Y101.099 E2.01601
G1 X136.504 Y101.685 E2.03627
G1 X137.354 Y105.167 E2.15549
G1 X137.503 Y105.943 E2.18177
G1 X137.563 Y106.552 E2.20212
G1 X137.777 Y110.132 E2.32141
G1 X137.784 Y110.921 E2.34765
G1 X137.735 Y111.528 E2.3679
G1 X137.307 Y115.09 E2.48723
G1 X137.174 Y115.868 E2.51348
G1 X137.017 Y116.457 E2.53375
G1 X135.961 Y119.882 E2.65296
G1 X135.69 Y120.624 E2.67924
G1 X135.43 Y121.178 E2.69959
G1 X133.778 Y124.36 E2.81884
G1 X133.379 Y125.042 E2.84512
G1 X133.026 Y125.537 E2.86534
G1 X130.832 Y128.375 E2.98465
G1 X130.318 Y128.974 E3.0109
G1 X129.879 Y129.401 E3.03127
G1 X127.215 Y131.799 E3.15048
G1 X126.602 Y132.297 E3.17675
G1 X126.098 Y132.637 E3.19697
G1 X123.047 Y134.523 E3.31627
G1 X122.355 Y134.903 E3.34253
G1 X121.796 Y135.149 E3.36284
G1 X118.461 Y136.458 E3.48201
G1 X117.712 Y136.709 E3.50828
G1 X117.117 Y136.85 E3.52862
G1 X113.595 Y137.543 E3.64801
G1 X112.813 Y137.656 E3.67429
G1 X112.207 Y137.689 E3.69447
G1 X108.625 Y137.743 E3.81362
G1 X107.835 Y137.715 E3.83991
G1 X107.229 Y137.639 E3.86023
G1 X103.69 Y137.051 E3.97955
G1 X102.918 Y136.882 E4.00583
G1 X102.336 Y136.699 E4.02613
G1 X98.96 Y135.489 E4.14541
G1 X98.002 Y135.07 E4.18018
G1 X96.409 Y134.244 E4.23987
G1 X95.796 Y133.891 E4.26339
G1 X94.284 Y132.924 E4.32309
G1 X93.445 Y132.304 E4.35779
G1 X90.709 Y129.986 E4.47705
G1 X90.133 Y129.446 E4.50331
G1 X89.726 Y128.988 E4.52369
G1 X87.448 Y126.217 E4.643
G1 X86.978 Y125.583 E4.66925
G1 X86.659 Y125.061 E4.6896
G1 X84.916 Y121.933 E4.8087
G1 X84.567 Y121.224 E4.83498
G1 X84.35 Y120.66 E4.85508
G1 X83.19 Y117.268 E4.97431
G1 X82.972 Y116.509 E5.00058
G1 X82.857 Y115.904 E5.02106
G1 X82.323 Y112.354 E5.14046
G1 X82.245 Y111.568 E5.16673
G1 X82.239 Y110.961 E5.18692
G1 X82.346 Y107.381 E5.30605
G1 X82.41 Y106.594 E5.33231
G1 X82.514 Y105.991 E5.35266
G1 X83.26 Y102.484 E5.47192
G1 X83.463 Y101.721 E5.49818
G1 X83.671 Y101.151 E5.51836
G1 X85.031 Y97.83 E5.63772
G1 X85.367 Y97.115 E5.66399
G1 X85.677 Y96.585 E5.68442
G1 X87.606 Y93.567 E5.80355
G1 F1500 E-0.69645
G0 F6000 X85.771 Y98.133
G1 F1500 E5.80355
G1 F1200 X86.091 Y97.457 E5.82842
G1 X86.351 Y97.016 E5.84545
G1 X88.28 Y93.998 E5.96458
G1 X88.716 Y93.39 E5.98947
G1 X89.046 Y93.008 E6.00626
G1 X91.487 Y90.376 E6.12565
G1 X92.024 Y89.855 E6.15053
G1 X92.419 Y89.536 E6.16742
G1 X95.284 Y87.387 E6.28654
G1 X95.905 Y86.971 E6.3114
G1 X96.354 Y86.726 E6.32841
G1 X99.565 Y85.121 E6.44781
G1 X100.251 Y84.822 E6.4727
G1 X100.731 Y84.663 E6.48952
G1 X104.17 Y83.658 E6.60868
G1 X104.899 Y83.487 E6.63359
G1 X105.402 Y83.415 E6.65049
G1 X108.97 Y83.04 E6.76981
G1 X109.717 Y83.002 E6.79469
G1 X110.225 Y83.022 E6.8116
G1 X113.801 Y83.29 E6.93087
G1 X114.543 Y83.385 E6.95575
G1 X115.04 Y83.495 E6.97268
G1 X118.509 Y84.397 E7.0919
G1 X119.221 Y84.624 E7.11675
G1 X119.689 Y84.82 E7.13363
G1 X122.94 Y86.326 E7.2528
G1 X123.601 Y86.677 E7.27769
G1 X124.027 Y86.954 E7.29459
G1 X126.962 Y89.02 E7.41397
G1 X127.55 Y89.483 E7.43886
G1 X127.92 Y89.832 E7.45578
G1 X130.434 Y92.384 E7.57493
G1 X130.929 Y92.944 E7.59978
G1 X131.23 Y93.352 E7.61665
G1 X133.252 Y96.317 E7.73601
G1 X133.64 Y96.957 E7.76091
G1 X133.864 Y97.413 E7.7778
G1 X135.322 Y100.687 E7.89701
G1 X135.589 Y101.386 E7.92189
G1 X135.727 Y101.875 E7.93879
G1 X136.577 Y105.357 E8.05801
G1 X136.716 Y106.092 E8.08289
G1 X136.765 Y106.599 E8.09983
G1 X136.979 Y110.179 E8.21911
G1 X136.983 Y110.927 E8.24399
G1 X136.941 Y111.432 E8.26084
G1 X136.513 Y114.994 E8.38017
G1 X136.384 Y115.731 E8.40505
G1 X136.252 Y116.221 E8.42193
G1 X135.196 Y119.646 E8.54114
G1 X134.938 Y120.349 E8.56605
G1 X134.72 Y120.809 E8.58298
G1 X133.068 Y123.991 E8.70222
G1 X132.688 Y124.636 E8.72712
G1 X132.393 Y125.047 E8.74395
G1 X130.199 Y127.885 E8.86326
G1 X129.711 Y128.452 E8.88814
G1 X129.344 Y128.807 E8.90512
G1 X126.68 Y131.205 E9.02434
G1 X126.098 Y131.675 E9.04922
G1 X125.678 Y131.956 E9.06603
G1 X122.627 Y133.842 E9.18533
G1 X121.97 Y134.201 E9.21023
G1 X121.504 Y134.404 E9.22713
G1 X118.169 Y135.713 E9.3463
G1 X117.459 Y135.949 E9.37118
G1 X116.962 Y136.065 E9.38816
G1 X113.44 Y136.758 E9.50754
G1 X112.7 Y136.863 E9.5324
G1 X112.195 Y136.889 E9.54922
G1 X108.613 Y136.943 E9.66837
G1 X107.865 Y136.914 E9.69327
G1 X107.36 Y136.849 E9.7102
G1 X103.821 Y136.261 E9.82953
G1 X103.09 Y136.099 E9.85443
G1 X102.606 Y135.946 E9.87131
G1 X99.23 Y134.736 E9.99059
G1 X98.37 Y134.36 E10.02181
G1 X96.777 Y133.534 E10.08149
G1 X96.228 Y133.217 E10.10258
G1 X94.716 Y132.25 E10.16227
G1 X93.962 Y131.694 E10.19343
G1 X91.226 Y129.376 E10.3127
G1 X90.682 Y128.863 E10.33757
G1 X90.344 Y128.48 E10.35456
G1 X88.066 Y125.709 E10.47387
G1 X87.622 Y125.107 E10.49875
G1 X87.358 Y124.671 E10.5157
G1 X85.615 Y121.543 E10.6348
G1 X85.287 Y120.871 E10.65967
G1 X85.107 Y120.401 E10.67641
G1 X83.947 Y117.009 E10.79564
G1 X83.743 Y116.289 E10.82053
G1 X83.648 Y115.785 E10.83759
G1 X83.114 Y112.235 E10.95699
G1 X83.042 Y111.491 E10.98186
G1 X83.039 Y110.985 E10.99869
G1 X83.146 Y107.405 E11.11781
G1 X83.208 Y106.659 E11.14271
G1 X83.296 Y106.158 E11.15963
G1 X84.042 Y102.651 E11.27888
G1 X84.237 Y101.928 E11.30379
G1 X84.411 Y101.454 E11.32058
G1 X85.771 Y98.133 E11.43994
G1 F1500 E4.93994
G0 F6000 X84.825 Y102.817
G1 F1500 E11.43994
G1 F1200 X85.01 Y102.138 E11.46335
G1 X85.151 Y101.757 E11.47686
G1 X86.511 Y98.436 E11.59622
G1 X86.815 Y97.801 E11.61963
G1 X87.025 Y97.447 E11.63332
G1 X88.954 Y94.429 E11.75246
G1 X89.366 Y93.858 E11.77587
G1 X89.632 Y93.552 E11.78936
G1 X92.073 Y90.92 E11.90875
G1 X92.58 Y90.432 E11.93216
G1 X92.899 Y90.176 E11.94576
G1 X95.764 Y88.027 E12.06488
G1 X96.35 Y87.637 E12.08829
G1 X96.712 Y87.441 E12.10198
G1 X99.923 Y85.836 E12.22138
G1 X100.57 Y85.558 E12.2448
G1 X100.956 Y85.431 E12.25832
G1 X104.395 Y84.426 E12.37748
G1 X105.081 Y84.267 E12.40091
G1 X105.486 Y84.211 E12.4145
G1 X109.054 Y83.836 E12.53383
G1 X109.757 Y83.802 E12.55724
G1 X110.165 Y83.819 E12.57082
G1 X113.741 Y84.087 E12.69009
G1 X114.439 Y84.18 E12.71351
G1 X114.838 Y84.27 E12.72712
G1 X118.307 Y85.172 E12.84633
G1 X118.977 Y85.387 E12.86974
G1 X119.353 Y85.546 E12.88332
G1 X122.604 Y87.052 E13.00248
G1 X123.225 Y87.384 E13.0259
G1 X123.567 Y87.608 E13.0395
G1 X126.502 Y89.674 E13.15888
G1 X127.054 Y90.111 E13.1823
G1 X127.35 Y90.393 E13.19589
G1 X129.864 Y92.945 E13.31504
G1 X130.329 Y93.474 E13.33847
G1 X130.569 Y93.803 E13.35201
G1 X132.591 Y96.768 E13.47138
G1 X132.954 Y97.371 E13.49479
G1 X133.133 Y97.739 E13.5084
G1 X134.591 Y101.013 E13.6276
G1 X134.84 Y101.671 E13.651
G1 X134.95 Y102.065 E13.66461
G1 X135.8 Y105.547 E13.78382
G1 X135.928 Y106.239 E13.80722
G1 X135.966 Y106.647 E13.82085
G1 X136.18 Y110.227 E13.94014
G1 X136.182 Y110.931 E13.96355
G1 X136.147 Y111.337 E13.97711
G1 X135.719 Y114.899 E14.09643
G1 X135.595 Y115.592 E14.11985
G1 X135.488 Y115.986 E14.13343
G1 X134.432 Y119.411 E14.25263
G1 X134.187 Y120.071 E14.27605
G1 X134.01 Y120.441 E14.28969
G1 X132.358 Y123.623 E14.40894
G1 X131.998 Y124.228 E14.43235
G1 X131.76 Y124.558 E14.44589
G1 X129.566 Y127.396 E14.5652
G1 X129.105 Y127.928 E14.58861
G1 X128.809 Y128.212 E14.60225
G1 X126.145 Y130.61 E14.72147
G1 X125.596 Y131.051 E14.74489
G1 X125.257 Y131.276 E14.75842
G1 X122.206 Y133.162 E14.87772
G1 X121.587 Y133.497 E14.90113
G1 X121.211 Y133.659 E14.91475
G1 X117.876 Y134.968 E15.03391
G1 X117.207 Y135.188 E15.05733
G1 X116.808 Y135.28 E15.07095
G1 X113.286 Y135.973 E15.19034
G1 X112.589 Y136.07 E15.21375
G1 X112.182 Y136.089 E15.2273
G1 X108.6 Y136.143 E15.34645
G1 X107.897 Y136.114 E15.36985
G1 X107.491 Y136.06 E15.38347
G1 X103.952 Y135.472 E15.50279
G1 X103.265 Y135.318 E15.52621
G1 X102.876 Y135.192 E15.53981
G1 X99.5 Y133.982 E15.65909
G1 X98.738 Y133.65 E15.68674
G1 X97.145 Y132.824 E15.74642
G1 X96.659 Y132.543 E15.76509
G1 X95.147 Y131.576 E15.82479
G1 X94.479 Y131.084 E15.85238
G1 X91.743 Y128.766 E15.97165
G1 X91.233 Y128.281 E15.99506
G1 X90.962 Y127.972 E16.00873
G1 X88.684 Y125.201 E16.12803
G1 X88.268 Y124.633 E16.15145
G1 X88.057 Y124.282 E16.16507
G1 X86.314 Y121.154 E16.28417
G1 X86.007 Y120.52 E16.3076
G1 X85.864 Y120.142 E16.32104
G1 X84.704 Y116.75 E16.44028
G1 X84.514 Y116.072 E16.4637
G1 X84.439 Y115.666 E16.47743
G1 X83.905 Y112.116 E16.59683
G1 X83.84 Y111.415 E16.62024
G1 X83.839 Y111.009 E16.63375
G1 X83.946 Y107.429 E16.75287
G1 X84.007 Y106.727 E16.77631
G1 X84.079 Y106.324 E16.78993
G1 X84.825 Y102.817 E16.90918
G1 F1500 E10.40918
G0 F6000 X84.745 Y107.453
G1 F1500 E16.90918
G1 F1200 X84.861 Y106.49 E16.94144
G1 X85.607 Y102.983 E17.06069
G1 X85.892 Y102.061 E17.09279
G1 X87.252 Y98.74 E17.21215
G1 X87.699 Y97.878 E17.24445
G1 X89.628 Y94.86 E17.36358
G1 X90.219 Y94.096 E17.3957
G1 X92.66 Y91.464 E17.5151
G1 X93.379 Y90.816 E17.54729
G1 X96.244 Y88.667 E17.66641
G1 X97.07 Y88.157 E17.6987
G1 X100.281 Y86.552 E17.81809
G1 X101.18 Y86.199 E17.85022
G1 X104.619 Y85.194 E17.96938
G1 X105.57 Y85.007 E18.00162
G1 X109.138 Y84.632 E18.12094
G1 X110.106 Y84.617 E18.15314
G1 X113.682 Y84.885 E18.27241
G1 X114.637 Y85.044 E18.30462
G1 X118.106 Y85.946 E18.42383
G1 X119.017 Y86.272 E18.45601
G1 X122.268 Y87.778 E18.57518
G1 X123.106 Y88.262 E18.60737
G1 X126.041 Y90.328 E18.72675
G1 X126.78 Y90.954 E18.75896
G1 X129.294 Y93.506 E18.87811
G1 X129.908 Y94.254 E18.91029
G1 X131.93 Y97.219 E19.02966
G1 X132.402 Y98.064 E19.06185
G1 X133.86 Y101.338 E19.18105
G1 X134.173 Y102.254 E19.21325
G1 X135.023 Y105.736 E19.33246
G1 X135.167 Y106.695 E19.36472
G1 X135.381 Y110.275 E19.484
G1 X135.352 Y111.241 E19.51614
G1 X134.924 Y114.803 E19.63547
G1 X134.723 Y115.75 E19.66767
G1 X133.667 Y119.175 E19.78687
G1 X133.3 Y120.072 E19.81911
G1 X131.648 Y123.254 E19.93836
G1 X131.127 Y124.069 E19.97053
G1 X128.933 Y126.907 E20.08984
G1 X128.274 Y127.617 E20.12206
G1 X125.61 Y130.015 E20.24127
G1 X124.836 Y130.595 E20.27344
G1 X121.785 Y132.481 E20.39274
G1 X120.919 Y132.915 E20.42496
G1 X117.584 Y134.224 E20.54412
G1 X116.654 Y134.495 E20.57634
G1 X113.132 Y135.188 E20.69573
G1 X112.17 Y135.289 E20.7279
G1 X108.588 Y135.343 E20.84705
G1 X107.622 Y135.271 E20.87927
G1 X104.083 Y134.683 E20.99859
G1 X103.146 Y134.439 E21.03079
G1 X99.77 Y133.229 E21.15007
G1 X99.106 Y132.94 E21.17416
G1 X97.513 Y132.114 E21.23384
G1 X97.09 Y131.869 E21.2501
G1 X95.578 Y130.902 E21.3098
G1 X94.996 Y130.473 E21.33384
G1 X92.26 Y128.155 E21.45311
G1 X91.58 Y127.464 E21.48536
G1 X89.302 Y124.693 E21.60467
G1 X88.756 Y123.892 E21.63691
G1 X87.013 Y120.764 E21.75601
G1 X86.621 Y119.883 E21.78808
G1 X85.461 Y116.491 E21.90731
G1 X85.23 Y115.547 E21.93964
G1 X84.696 Y111.997 E22.05904
G1 X84.638 Y111.033 E22.09116
G1 X84.745 Y107.453 E22.21028
G1 F1500 E15.71028
G0 F6000 X84.239 Y111.021
G1 F1500 E22.21028
G1 F1200 X84.346 Y107.441 E22.32941
G1 X84.406 Y106.763 E22.35205
G1 X84.47 Y106.407 E22.36408
G1 X85.216 Y102.9 E22.48333
G1 X85.396 Y102.244 E22.50596
G1 X85.522 Y101.909 E22.51786
G1 X86.882 Y98.588 E22.63722
G1 X87.176 Y97.974 E22.65986
G1 X87.362 Y97.662 E22.67194
G1 X89.291 Y94.644 E22.79107
G1 X89.691 Y94.093 E22.81372
G1 X89.925 Y93.824 E22.82558
G1 X92.366 Y91.192 E22.94497
G1 X92.858 Y90.721 E22.96763
G1 X93.139 Y90.496 E22.9796
G1 X96.004 Y88.347 E23.09872
G1 X96.571 Y87.971 E23.12135
G1 X96.891 Y87.799 E23.13343
G1 X100.102 Y86.194 E23.25283
G1 X100.728 Y85.926 E23.27547
G1 X101.068 Y85.815 E23.28737
G1 X104.507 Y84.81 E23.40654
G1 X105.171 Y84.658 E23.42919
G1 X105.528 Y84.609 E23.44118
G1 X109.096 Y84.234 E23.5605
G1 X109.776 Y84.202 E23.58314
G1 X110.135 Y84.218 E23.5951
G1 X113.711 Y84.486 E23.71437
G1 X114.386 Y84.577 E23.73702
G1 X114.738 Y84.657 E23.74903
G1 X118.207 Y85.559 E23.86824
G1 X118.854 Y85.768 E23.89086
G1 X119.185 Y85.909 E23.90283
G1 X122.436 Y87.415 E24.02199
G1 X123.036 Y87.737 E24.04464
G1 X123.337 Y87.935 E24.05662
G1 X126.272 Y90.001 E24.176
G1 X126.804 Y90.425 E24.19863
G1 X127.065 Y90.674 E24.21063
G1 X129.579 Y93.226 E24.32977
G1 X130.027 Y93.738 E24.3524
G1 X130.239 Y94.028 E24.36435
G1 X132.261 Y96.993 E24.48372
G1 X132.611 Y97.577 E24.50636
G1 X132.767 Y97.901 E24.51832
G1 X134.225 Y101.175 E24.63752
G1 X134.465 Y101.813 E24.6602
G1 X134.562 Y102.16 E24.67218
G1 X135.412 Y105.642 E24.79139
G1 X135.534 Y106.311 E24.81401
G1 X135.567 Y106.671 E24.82603
G1 X135.781 Y110.251 E24.94532
G1 X135.781 Y110.932 E24.96797
G1 X135.75 Y111.289 E24.97989
G1 X135.322 Y114.851 E25.09921
G1 X135.201 Y115.521 E25.12186
G1 X135.106 Y115.868 E25.13382
G1 X134.05 Y119.293 E25.25303
G1 X133.811 Y119.931 E25.27569
G1 X133.655 Y120.256 E25.28768
G1 X132.003 Y123.438 E25.40693
G1 X131.654 Y124.023 E25.42958
G1 X131.444 Y124.313 E25.44149
G1 X129.25 Y127.151 E25.5608
G1 X128.802 Y127.665 E25.58348
G1 X128.541 Y127.915 E25.5955
G1 X125.877 Y130.313 E25.71472
G1 X125.345 Y130.738 E25.73736
G1 X125.047 Y130.936 E25.74926
G1 X121.996 Y132.822 E25.86856
G1 X121.397 Y133.145 E25.8912
G1 X121.065 Y133.287 E25.90321
G1 X117.73 Y134.596 E26.02237
G1 X117.083 Y134.807 E26.045
G1 X116.731 Y134.888 E26.05702
G1 X113.209 Y135.581 E26.1764
G1 X112.534 Y135.673 E26.19906
G1 X112.176 Y135.689 E26.21098
G1 X108.594 Y135.743 E26.33013
G1 X107.914 Y135.714 E26.35277
G1 X107.556 Y135.666 E26.36478
G1 X104.017 Y135.078 E26.48411
G1 X103.353 Y134.927 E26.50675
G1 X103.011 Y134.816 E26.51871
G1 X99.635 Y133.606 E26.63799
G1 X98.922 Y133.295 E26.66387
G1 X97.329 Y132.469 E26.72355
G1 X96.874 Y132.206 E26.74103
G1 X95.362 Y131.239 E26.80072
G1 X94.738 Y130.778 E26.82653
G1 X92.002 Y128.46 E26.94579
G1 X91.509 Y127.99 E26.96845
G1 X91.271 Y127.718 E26.98047
G1 X88.993 Y124.947 E27.09978
G1 X88.592 Y124.397 E27.12242
G1 X88.406 Y124.087 E27.13444
G1 X86.663 Y120.959 E27.25354
G1 X86.368 Y120.346 E27.27617
G1 X86.242 Y120.013 E27.28801
G1 X85.082 Y116.621 E27.40724
G1 X84.9 Y115.965 E27.42989
G1 X84.835 Y115.607 E27.44199
G1 X84.301 Y112.057 E27.56139
G1 X84.239 Y111.379 E27.58403
G1 X84.239 Y111.021 E27.59594
G0 F6000 X85.038 Y111.045
G1 F1200 X85.145 Y107.465 E27.71507
G1 X85.252 Y106.574 E27.74491
G1 X85.998 Y103.067 E27.86417
G1 X86.262 Y102.212 E27.89393
