;FLAVOR:Marlin
;TIME:3635
;Filament used: 2.50299m
;Layer height: 0.2
;MINX:82.201
;MINY:82.201
;MINZ:0.2
;MAXX:137.799
;MAXY:137.799
;MAXZ:29
;Generated with Cura_SteamEngine main
M82 ;absolute extrusion mode
; Ender 3 Custom Start G-code
G92 E0 ; Reset Extruder
G28 ; Home all axes
M104 S175 ; Start heating up the nozzle most of the way
M190 S60 ; Start heating the bed, wait until target temperature reached
M109 S200 ; Finish heating the nozzle
G1 Z2.0 F3000 ; Move Z Axis up little to prevent scratching of Heat Bed
G1 X0.1 Y20 Z0.3 F5000.0 ; Move to start position
G1 X0.1 Y200.0 Z0.3 F1500.0 E15 ; Draw the first line
G1 X0.4 Y200.0 Z0.3 F5000.0 ; Move to side a little
G1 X0.4 Y20 Z0.3 F1500.0 E30 ; Draw the second line
G92 E0 ; Reset Extruder
G1 Z2.0 F3000 ; Move Z Axis up little to prevent scratching of Heat Bed
G1 X5 Y20 Z0.3 F5000.0 ; Move over to prevent blob squish
G92 E0
G92 E0
G1 F1500 E-6.5
;LAYER_COUNT:145
;LAYER:0
M107
G0 F6000 X89.163 Y91.63 Z0.2
G0 X85.611 Y96.701
;TYPE:SKIRT
G1 F1500 E0
G1 F1200 X85.98 Y96.004 E0.02623
G1 X86.291 Y95.524 E0.04525
G1 X88.289 Y92.671 E0.1611
G1 X88.774 Y92.048 E0.18736
G1 X89.163 Y91.63 E0.20635
G1 X91.63 Y89.163 E0.32239
G1 X92.216 Y88.633 E0.34867
G1 X92.671 Y88.289 E0.36764
G1 X95.524 Y86.291 E0.48349
G1 X96.193 Y85.871 E0.50976
G1 X96.701 Y85.611 E0.52874
G1 X99.863 Y84.136 E0.64479
G1 X100.594 Y83.839 E0.67103
G1 X101.143 Y83.67 E0.69014
G1 X104.509 Y82.769 E0.80603
G1 X105.281 Y82.604 E0.83229
G1 X105.846 Y82.534 E0.85123
G1 X109.32 Y82.23 E0.96721
G1 X110.109 Y82.201 E0.99347
G1 X110.68 Y82.23 E1.01249
G1 X114.154 Y82.534 E1.12848
G1 X114.936 Y82.642 E1.15473
G1 X115.491 Y82.769 E1.17367
G1 X118.857 Y83.67 E1.28957
G1 X119.608 Y83.913 E1.31582
G1 X120.137 Y84.136 E1.33491
G1 X123.299 Y85.611 E1.45096
G1 X123.997 Y85.981 E1.47724
G1 X124.476 Y86.291 E1.49621
G1 X127.329 Y88.289 E1.61206
G1 X127.952 Y88.774 E1.63832
G1 X128.37 Y89.163 E1.65731
G1 X130.837 Y91.63 E1.77335
G1 X131.367 Y92.216 E1.79963
G1 X131.711 Y92.671 E1.8186
G1 X133.709 Y95.524 E1.93445
G1 X134.129 Y96.193 E1.96072
G1 X134.389 Y96.701 E1.9797
G1 X135.863 Y99.861 E2.09568
G1 X136.16 Y100.592 E2.12192
G1 X136.328 Y101.14 E2.14098
G1 X137.23 Y104.508 E2.25695
G1 X137.396 Y105.28 E2.28322
G1 X137.466 Y105.846 E2.30218
G1 X137.77 Y109.318 E2.41811
G1 X137.799 Y110.107 E2.44437
G1 X137.77 Y110.678 E2.46338
G1 X137.466 Y114.154 E2.57943
G1 X137.358 Y114.936 E2.60569
G1 X137.231 Y115.491 E2.62463
G1 X136.33 Y118.856 E2.74049
G1 X136.087 Y119.608 E2.76678
G1 X135.864 Y120.136 E2.78584
G1 X134.389 Y123.299 E2.90192
G1 X134.02 Y123.996 E2.92815
G1 X133.709 Y124.476 E2.94717
G1 X131.711 Y127.329 E3.06302
G1 X131.226 Y127.952 E3.08928
G1 X130.837 Y128.37 E3.10827
G1 X128.37 Y130.837 E3.22431
G1 X127.784 Y131.367 E3.25059
G1 X127.329 Y131.711 E3.26956
G1 X124.476 Y133.709 E3.38541
G1 X123.807 Y134.129 E3.41168
G1 X123.299 Y134.389 E3.43066
G1 X120.137 Y135.864 E3.54671
G1 X119.406 Y136.161 E3.57295
G1 X118.857 Y136.33 E3.59206
G1 X115.491 Y137.231 E3.70795
G1 X114.719 Y137.396 E3.73421
G1 X114.154 Y137.466 E3.75314
G1 X110.68 Y137.77 E3.86913
G1 X109.891 Y137.799 E3.89539
G1 X109.32 Y137.77 E3.91441
G1 X105.846 Y137.466 E4.03039
G1 X105.064 Y137.358 E4.05665
G1 X104.509 Y137.231 E4.07559
G1 X101.143 Y136.33 E4.19148
G1 X100.392 Y136.087 E4.21774
G1 X99.863 Y135.864 E4.23683
G1 X96.701 Y134.389 E4.35288
G1 X96.003 Y134.019 E4.37915
G1 X95.524 Y133.709 E4.39813
G1 X92.671 Y131.711 E4.51398
G1 X92.048 Y131.226 E4.54024
G1 X91.63 Y130.837 E4.55923
G1 X89.163 Y128.37 E4.67527
G1 X88.633 Y127.784 E4.70155
G1 X88.289 Y127.329 E4.72052
G1 X86.291 Y124.476 E4.83637
G1 X85.871 Y123.807 E4.86264
G1 X85.611 Y123.299 E4.88162
G1 X84.136 Y120.136 E4.9977
G1 X83.839 Y119.404 E5.02397
G1 X83.67 Y118.856 E5.04305
G1 X82.769 Y115.491 E5.15891
G1 X82.604 Y114.719 E5.18517
G1 X82.534 Y114.154 E5.2041
G1 X82.23 Y110.682 E5.32002
G1 X82.201 Y109.893 E5.34628
G1 X82.23 Y109.322 E5.3653
G1 X82.534 Y105.846 E5.48135
G1 X82.642 Y105.064 E5.50761
G1 X82.769 Y104.509 E5.52654
G1 X83.67 Y101.144 E5.64241
G1 X83.913 Y100.392 E5.66869
G1 X84.136 Y99.864 E5.68776
G1 X85.611 Y96.701 E5.80383
G1 F1500 E-0.69617
G0 F6000 X84.443 Y101.35
G1 F1500 E5.80383
G1 F1200 X84.675 Y100.639 E5.82871
G1 X84.861 Y100.203 E5.84448
G1 X86.336 Y97.04 E5.96055
G1 X86.688 Y96.379 E5.98546
G1 X86.946 Y95.983 E6.00118
G1 X88.944 Y93.13 E6.11703
G1 X89.405 Y92.541 E6.1419
G1 X89.728 Y92.195 E6.15765
G1 X92.195 Y89.728 E6.27369
G1 X92.752 Y89.228 E6.29858
G1 X93.13 Y88.944 E6.31431
G1 X95.983 Y86.946 E6.43016
G1 X96.617 Y86.55 E6.45502
G1 X97.039 Y86.336 E6.47075
G1 X100.201 Y84.861 E6.5868
G1 X100.895 Y84.582 E6.61168
G1 X101.35 Y84.443 E6.6275
G1 X104.716 Y83.542 E6.7434
G1 X105.448 Y83.388 E6.76828
G1 X105.916 Y83.331 E6.78396
G1 X109.39 Y83.027 E6.89995
G1 X110.137 Y83.001 E6.92481
G1 X110.61 Y83.027 E6.94056
G1 X114.084 Y83.331 E7.05655
G1 X114.825 Y83.436 E7.08144
G1 X115.284 Y83.542 E7.09711
G1 X118.65 Y84.443 E7.21301
G1 X119.361 Y84.675 E7.23788
G1 X119.799 Y84.861 E7.25371
G1 X122.961 Y86.336 E7.36976
G1 X123.621 Y86.688 E7.39463
G1 X124.017 Y86.946 E7.41035
G1 X126.87 Y88.944 E7.5262
G1 X127.459 Y89.405 E7.55108
G1 X127.805 Y89.728 E7.56682
G1 X130.272 Y92.195 E7.68286
G1 X130.772 Y92.752 E7.70776
G1 X131.056 Y93.13 E7.72348
G1 X133.054 Y95.983 E7.83933
G1 X133.45 Y96.617 E7.86419
G1 X133.664 Y97.039 E7.87993
G1 X135.138 Y100.199 E7.9959
G1 X135.417 Y100.893 E8.02078
G1 X135.556 Y101.347 E8.03657
G1 X136.458 Y104.715 E8.15254
G1 X136.612 Y105.447 E8.17742
G1 X136.669 Y105.915 E8.1931
G1 X136.973 Y109.387 E8.30902
G1 X136.999 Y110.135 E8.33391
G1 X136.973 Y110.608 E8.34967
G1 X136.669 Y114.084 E8.46572
G1 X136.564 Y114.825 E8.49062
G1 X136.458 Y115.285 E8.50632
G1 X135.557 Y118.65 E8.62218
G1 X135.325 Y119.361 E8.64705
G1 X135.139 Y119.797 E8.66282
G1 X133.664 Y122.96 E8.7789
G1 X133.312 Y123.621 E8.80381
G1 X133.054 Y124.017 E8.81953
G1 X131.056 Y126.87 E8.93537
G1 X130.595 Y127.459 E8.96025
G1 X130.272 Y127.805 E8.97599
G1 X127.805 Y130.272 E9.09203
G1 X127.248 Y130.772 E9.11693
G1 X126.87 Y131.056 E9.13265
G1 X124.017 Y133.054 E9.2485
G1 X123.383 Y133.45 E9.27336
G1 X122.961 Y133.664 E9.2891
G1 X119.799 Y135.139 E9.40515
G1 X119.105 Y135.418 E9.43003
G1 X118.65 Y135.557 E9.44585
G1 X115.284 Y136.458 E9.56175
G1 X114.552 Y136.612 E9.58662
G1 X114.084 Y136.669 E9.60231
G1 X110.61 Y136.973 E9.71829
G1 X109.863 Y136.999 E9.74315
G1 X109.39 Y136.973 E9.75891
G1 X105.916 Y136.669 E9.8749
G1 X105.175 Y136.564 E9.89979
G1 X104.716 Y136.458 E9.91546
G1 X101.35 Y135.557 E10.03135
G1 X100.639 Y135.325 E10.05623
G1 X100.201 Y135.139 E10.07205
G1 X97.039 Y133.664 E10.1881
G1 X96.379 Y133.312 E10.21298
G1 X95.983 Y133.054 E10.2287
G1 X93.13 Y131.056 E10.34455
G1 X92.541 Y130.595 E10.36942
G1 X92.195 Y130.272 E10.38517
G1 X89.728 Y127.805 E10.50121
G1 X89.228 Y127.248 E10.5261
G1 X88.944 Y126.87 E10.54183
G1 X86.946 Y124.017 E10.65767
G1 X86.55 Y123.383 E10.68254
G1 X86.336 Y122.96 E10.6983
G1 X84.861 Y119.797 E10.81438
G1 X84.581 Y119.104 E10.83924
G1 X84.443 Y118.65 E10.85502
G1 X83.542 Y115.285 E10.97089
G1 X83.388 Y114.553 E10.99577
G1 X83.331 Y114.085 E11.01145
G1 X83.027 Y110.613 E11.12737
G1 X83.001 Y109.865 E11.15226
G1 X83.027 Y109.392 E11.16802
G1 X83.331 Y105.916 E11.28407
G1 X83.436 Y105.175 E11.30896
G1 X83.542 Y104.715 E11.32466
G1 X84.443 Y101.35 E11.44053
G1 F1500 E4.94053
G0 F6000 X84.128 Y105.986
G1 F1500 E11.44053
G1 F1200 X84.229 Y105.289 E11.46395
G1 X84.315 Y104.922 E11.47649
G1 X85.216 Y101.557 E11.59235
G1 X85.436 Y100.889 E11.61574
G1 X85.586 Y100.541 E11.62835
G1 X87.061 Y97.378 E11.74442
G1 X87.394 Y96.758 E11.76783
G1 X87.602 Y96.441 E11.78044
G1 X89.6 Y93.588 E11.89629
G1 X90.035 Y93.036 E11.91966
G1 X90.294 Y92.761 E11.93223
G1 X92.761 Y90.294 E12.04827
G1 X93.286 Y89.825 E12.07168
G1 X93.588 Y89.6 E12.08421
G1 X96.441 Y87.602 E12.20006
G1 X97.04 Y87.231 E12.22349
G1 X97.377 Y87.061 E12.23604
G1 X100.539 Y85.586 E12.35209
G1 X101.193 Y85.325 E12.37551
G1 X101.557 Y85.216 E12.38815
G1 X104.923 Y84.315 E12.50405
G1 X105.612 Y84.172 E12.52745
G1 X105.986 Y84.128 E12.53998
G1 X109.46 Y83.824 E12.65596
G1 X110.163 Y83.802 E12.67936
G1 X110.54 Y83.824 E12.69192
G1 X114.014 Y84.128 E12.8079
G1 X114.711 Y84.229 E12.83133
G1 X115.077 Y84.315 E12.84383
G1 X118.443 Y85.216 E12.95973
G1 X119.112 Y85.436 E12.98315
G1 X119.461 Y85.586 E12.99579
G1 X122.623 Y87.061 E13.11183
G1 X123.243 Y87.395 E13.13526
G1 X123.559 Y87.602 E13.14782
G1 X126.412 Y89.6 E13.26367
G1 X126.964 Y90.035 E13.28704
G1 X127.239 Y90.294 E13.29961
G1 X129.706 Y92.761 E13.41565
G1 X130.175 Y93.286 E13.43906
G1 X130.4 Y93.588 E13.45159
G1 X132.398 Y96.441 E13.56743
G1 X132.769 Y97.04 E13.59087
G1 X132.939 Y97.377 E13.60342
G1 X134.413 Y100.537 E13.7194
G1 X134.674 Y101.191 E13.74282
G1 X134.783 Y101.554 E13.75542
G1 X135.685 Y104.922 E13.87139
G1 X135.828 Y105.611 E13.8948
G1 X135.872 Y105.985 E13.90732
G1 X136.176 Y109.457 E14.02324
G1 X136.198 Y110.161 E14.04667
G1 X136.176 Y110.538 E14.05923
G1 X135.872 Y114.014 E14.17528
G1 X135.771 Y114.711 E14.19871
G1 X135.685 Y115.078 E14.21124
G1 X134.784 Y118.443 E14.32711
G1 X134.564 Y119.111 E14.3505
G1 X134.414 Y119.459 E14.3631
G1 X132.939 Y122.622 E14.47918
G1 X132.606 Y123.242 E14.50259
G1 X132.398 Y123.559 E14.5152
G1 X130.4 Y126.412 E14.63105
G1 X129.965 Y126.964 E14.65442
G1 X129.706 Y127.239 E14.66699
G1 X127.239 Y129.706 E14.78303
G1 X126.714 Y130.175 E14.80644
G1 X126.412 Y130.4 E14.81897
G1 X123.559 Y132.398 E14.93481
G1 X122.96 Y132.769 E14.95825
G1 X122.623 Y132.939 E14.9708
G1 X119.461 Y134.414 E15.08685
G1 X118.807 Y134.675 E15.11027
G1 X118.443 Y134.784 E15.12291
G1 X115.077 Y135.685 E15.2388
G1 X114.388 Y135.828 E15.26221
G1 X114.014 Y135.872 E15.27473
G1 X110.54 Y136.176 E15.39072
G1 X109.837 Y136.198 E15.41411
G1 X109.46 Y136.176 E15.42667
G1 X105.986 Y135.872 E15.54266
G1 X105.289 Y135.771 E15.56609
G1 X104.923 Y135.685 E15.57859
G1 X101.557 Y134.784 E15.69448
G1 X100.888 Y134.564 E15.71791
G1 X100.539 Y134.414 E15.73054
G1 X97.377 Y132.939 E15.84659
G1 X96.757 Y132.605 E15.87001
G1 X96.441 Y132.398 E15.88258
G1 X93.588 Y130.4 E15.99842
G1 X93.036 Y129.965 E16.0218
G1 X92.761 Y129.706 E16.03436
G1 X90.294 Y127.239 E16.1504
G1 X89.825 Y126.714 E16.17382
G1 X89.6 Y126.412 E16.18635
G1 X87.602 Y123.559 E16.30219
G1 X87.231 Y122.96 E16.32563
G1 X87.061 Y122.622 E16.33821
G1 X85.586 Y119.459 E16.45429
G1 X85.325 Y118.805 E16.47771
G1 X85.216 Y118.443 E16.49028
G1 X84.315 Y115.078 E16.60615
G1 X84.172 Y114.388 E16.62958
G1 X84.128 Y114.015 E16.64208
G1 X83.824 Y110.543 E16.758
G1 X83.802 Y109.839 E16.78142
G1 X83.824 Y109.462 E16.79398
G1 X84.128 Y105.986 E16.91004
G1 F1500 E10.41004
G0 F6000 X84.222 Y109.497
G1 F1500 E16.91004
G1 F1200 X84.526 Y106.021 E17.02609
G1 X84.701 Y105.026 E17.05969
G1 X85.602 Y101.661 E17.17555
G1 X85.948 Y100.71 E17.20921
G1 X87.423 Y97.547 E17.32529
G1 X87.929 Y96.671 E17.35894
G1 X89.927 Y93.818 E17.47479
G1 X90.577 Y93.044 E17.5084
G1 X93.044 Y90.577 E17.62444
G1 X93.818 Y89.927 E17.65806
G1 X96.671 Y87.929 E17.77391
G1 X97.546 Y87.424 E17.80751
G1 X100.708 Y85.949 E17.92356
G1 X101.66 Y85.602 E17.95726
G1 X105.026 Y84.701 E18.07315
G1 X106.02 Y84.526 E18.10672
G1 X109.494 Y84.222 E18.22271
G1 X110.506 Y84.222 E18.25637
G1 X113.98 Y84.526 E18.37236
G1 X114.974 Y84.701 E18.40592
G1 X118.34 Y85.602 E18.52182
G1 X119.292 Y85.949 E18.55552
G1 X122.454 Y87.424 E18.67157
G1 X123.329 Y87.929 E18.70517
G1 X126.182 Y89.927 E18.82102
G1 X126.956 Y90.577 E18.85463
G1 X129.423 Y93.044 E18.97067
G1 X130.073 Y93.818 E19.00429
G1 X132.071 Y96.671 E19.12014
G1 X132.576 Y97.546 E19.15374
G1 X134.05 Y100.706 E19.26971
G1 X134.397 Y101.658 E19.30342
G1 X135.299 Y105.026 E19.41938
G1 X135.474 Y106.02 E19.45295
G1 X135.778 Y109.492 E19.56887
G1 X135.778 Y110.503 E19.6025
G1 X135.474 Y113.979 E19.71855
G1 X135.299 Y114.974 E19.75215
G1 X134.398 Y118.339 E19.86802
G1 X134.052 Y119.29 E19.90168
G1 X132.577 Y122.453 E20.01775
G1 X132.071 Y123.329 E20.0514
G1 X130.073 Y126.182 E20.16725
G1 X129.423 Y126.956 E20.20087
G1 X126.956 Y129.423 E20.31691
G1 X126.182 Y130.073 E20.35052
G1 X123.329 Y132.071 E20.46637
G1 X122.454 Y132.576 E20.49997
G1 X119.292 Y134.051 E20.61602
G1 X118.34 Y134.398 E20.64972
G1 X114.974 Y135.299 E20.76562
G1 X113.98 Y135.474 E20.79918
G1 X110.506 Y135.778 E20.91517
G1 X109.494 Y135.778 E20.94883
G1 X106.02 Y135.474 E21.06482
G1 X105.026 Y135.299 E21.09839
G1 X101.66 Y134.398 E21.21428
G1 X100.708 Y134.051 E21.24798
G1 X97.546 Y132.576 E21.36403
G1 X96.671 Y132.071 E21.39763
G1 X93.818 Y130.073 E21.51348
G1 X93.044 Y129.423 E21.5471
G1 X90.577 Y126.956 E21.66314
G1 X89.927 Y126.182 E21.69675
G1 X87.929 Y123.329 E21.8126
G1 X87.423 Y122.453 E21.84625
G1 X85.948 Y119.29 E21.96233
G1 X85.602 Y118.339 E21.99599
G1 X84.701 Y114.974 E22.11185
G1 X84.526 Y113.98 E22.14542
G1 X84.222 Y110.508 E22.26134
G1 X84.222 Y109.497 E22.29496
G0 F6000 X84.621 Y109.532
G1 F1200 X84.925 Y106.056 E22.41102
G1 X85.088 Y105.129 E22.44232
G1 X85.989 Y101.764 E22.55819
G1 X86.311 Y100.879 E22.58951
G1 X87.786 Y97.716 E22.70559
G1 X88.257 Y96.9 E22.73692
G1 X90.255 Y94.047 E22.85277
G1 X90.86 Y93.327 E22.88405
G1 X93.327 Y90.86 E23.00009
G1 X94.047 Y90.255 E23.03137
G1 X96.9 Y88.257 E23.14722
G1 X97.715 Y87.786 E23.17852
G1 X100.877 Y86.311 E23.29457
G1 X101.764 Y85.989 E23.32596
G1 X105.13 Y85.088 E23.44185
G1 X106.055 Y84.925 E23.47309
G1 X109.529 Y84.621 E23.58908
G1 X110.471 Y84.621 E23.62041
G1 X113.945 Y84.925 E23.7364
G1 X114.87 Y85.088 E23.76764
G1 X118.236 Y85.989 E23.88353
G1 X119.123 Y86.311 E23.91492
G1 X122.285 Y87.786 E24.03097
G1 X123.1 Y88.257 E24.06227
G1 X125.953 Y90.255 E24.17812
G1 X126.673 Y90.86 E24.2094
G1 X129.14 Y93.327 E24.32544
G1 X129.745 Y94.047 E24.35672
G1 X131.743 Y96.9 E24.47257
G1 X132.214 Y97.715 E24.50387
G1 X133.688 Y100.875 E24.61985
G1 X134.01 Y101.761 E24.6512
G1 X134.912 Y105.129 E24.76717
G1 X135.075 Y106.055 E24.79844
G1 X135.379 Y109.527 E24.91436
G1 X135.379 Y110.468 E24.94566
G1 X135.075 Y113.944 E25.06172
G1 X134.912 Y114.871 E25.09302
G1 X134.011 Y118.236 E25.20888
G1 X133.689 Y119.121 E25.24021
G1 X132.214 Y122.284 E25.35628
G1 X131.743 Y123.1 E25.38762
G1 X129.745 Y125.953 E25.50347
G1 X129.14 Y126.673 E25.53475
G1 X126.673 Y129.14 E25.65079
G1 X125.953 Y129.745 E25.68207
G1 X123.1 Y131.743 E25.79791
G1 X122.285 Y132.214 E25.82922
G1 X119.123 Y133.689 E25.94527
G1 X118.236 Y134.011 E25.97665
G1 X114.87 Y134.912 E26.09255
G1 X113.945 Y135.075 E26.12379
G1 X110.471 Y135.379 E26.23978
G1 X109.529 Y135.379 E26.27111
G1 X106.055 Y135.075 E26.3871
G1 X105.13 Y134.912 E26.41833
G1 X101.764 Y134.011 E26.53423
G1 X100.877 Y133.689 E26.56562
G1 X97.715 Y132.214 E26.68166
G1 X96.9 Y131.743 E26.71297
G1 X94.047 Y129.745 E26.82882
G1 X93.327 Y129.14 E26.8601
G1 X90.86 Y126.673 E26.97614
G1 X90.255 Y125.953 E27.00742
G1 X88.257 Y123.1 E27.12326
G1 X87.786 Y122.284 E27.1546
G1 X86.311 Y119.121 E27.27068
G1 X85.989 Y118.236 E27.302
G1 X85.088 Y114.871 E27.41786
G1 X84.925 Y113.945 E27.44914
G1 X84.621 Y110.473 E27.56506
G1 X84.621 Y109.532 E27.59636
G0 F6000 X85.019 Y109.566
G1 F1200 X85.323 Y106.09 E27.71241
G1 X85.474 Y105.233 E27.74135
G1 X86.375 Y101.868 E27.85721
G1 X86.673 Y101.048 E27.88623
G1 X88.148 Y97.885 E28.00231
G1 X88.584 Y97.13 E28.03131
G1 X90.582 Y94.277 E28.14716
G1 X91.142 Y93.609 E28.17615
G1 X93.609 Y91.142 E28.29219
G1 X94.277 Y90.582 E28.32118
G1 X97.13 Y88.584 E28.43703
G1 X97.884 Y88.149 E28.46598
G1 X101.046 Y86.674 E28.58203
G1 X101.867 Y86.375 E28.61109
G1 X105.233 Y85.474 E28.72698
G1 X106.09 Y85.323 E28.75593
G1 X109.564 Y85.019 E28.87191
G1 X110.436 Y85.019 E28.90092
G1 X113.91 Y85.323 E29.0169
G1 X114.767 Y85.474 E29.04585
G1 X118.133 Y86.375 E29.16174
G1 X118.954 Y86.674 E29.1908
G1 X122.116 Y88.149 E29.30685
G1 X122.87 Y88.584 E29.3358
G1 X125.723 Y90.582 E29.45165
G1 X126.391 Y91.142 E29.48064
G1 X128.858 Y93.609 E29.59668
G1 X129.418 Y94.277 E29.62567
G1 X131.416 Y97.13 E29.74152
G1 X131.851 Y97.884 E29.77047
