;FLAVOR:Marlin
;TIME:9757
;Filament used: 6.05859m
;Layer height: 0.2
;MINX:42.338
;MINY:55.408
;MINZ:0.2
;MAXX:137.783
;MAXY:154.047
;MAXZ:30.4
;Generated with Cura_SteamEngine 5.2.1
M82 ;absolute extrusion mode
; Ender 3 Custom Start G-code
G92 E0 ; Reset Extruder
G28 ; Home all axes
M104 S175 ; Start heating up the nozzle most of the way
M190 S60 ; Start heating the bed, wait until target temperature reached
M109 S200 ; Finish heating the nozzle
G1 Z2.0 F3000 ; Move Z Axis up little to prevent scratching of Heat Bed
G1 X0.1 Y20 Z0.3 F5000.0 ; Move to start position
G1 X0.1 Y200.0 Z0.3 F1500.0 E15 ; Draw the first line
G1 X0.4 Y200.0 Z0.3 F5000.0 ; Move to side a little
G1 X0.4 Y20 Z0.3 F1500.0 E30 ; Draw the second line
G92 E0 ; Reset Extruder
G1 Z2.0 F3000 ; Move Z Axis up little to prevent scratching of Heat Bed
G1 X5 Y20 Z0.3 F5000.0 ; Move over to prevent blob squish
G92 E0
G92 E0
G1 F1500 E-6.5
;LAYER_COUNT:152
;LAYER:0
M107
G0 F6000 X46.22 Y58.038 Z0.2
;TYPE:SKIRT
G1 F1500 E0
G1 F1200 X46.959 Y57.462 E0.03116
G1 X47.745 Y56.95 E0.06236
G1 X48.572 Y56.507 E0.09357
G1 X49.434 Y56.137 E0.12477
G1 X50.324 Y55.841 E0.15596
G1 X51.236 Y55.622 E0.18716
G1 X52.163 Y55.481 E0.21834
G1 X53.039 Y55.421 E0.24755
G1 X53.668 Y55.408 E0.26847
G1 X88.362 Y55.409 E1.4224
G1 X89.07 Y55.42 E1.44595
G1 X90.006 Y55.475 E1.47714
G1 X90.934 Y55.609 E1.50832
G1 X91.848 Y55.822 E1.53954
G1 X92.532 Y56.036 E1.56337
G1 X94.755 Y56.814 E1.64171
G1 X97.147 Y57.582 E1.72527
G1 X99.544 Y58.277 E1.80828
G1 X102.014 Y58.918 E1.89315
G1 X104.47 Y59.481 E1.97696
G1 X106.916 Y59.971 E2.05993
G1 X109.396 Y60.394 E2.1436
G1 X111.907 Y60.75 E2.22795
G1 X114.383 Y61.03 E2.31083
G1 X116.955 Y61.247 E2.39668
G1 X118.423 Y61.347 E2.44562
G1 X119.356 Y61.451 E2.47684
G1 X120.275 Y61.633 E2.508
G1 X121.177 Y61.893 E2.53922
G1 X122.052 Y62.229 E2.5704
G1 X122.896 Y62.638 E2.60159
G1 X123.702 Y63.118 E2.63279
G1 X124.464 Y63.665 E2.66399
G1 X125.177 Y64.274 E2.69518
G1 X125.835 Y64.942 E2.72637
G1 X126.434 Y65.664 E2.75757
G1 X126.969 Y66.434 E2.78875
G1 X127.437 Y67.247 E2.81995
G1 X127.834 Y68.097 E2.85116
G1 X128.157 Y68.977 E2.88234
G1 X128.404 Y69.882 E2.91354
G1 X128.573 Y70.805 E2.94475
G1 X128.639 Y71.402 E2.96472
G1 X128.735 Y72.551 E3.00307
G1 X128.995 Y75.215 E3.0921
G1 X129.31 Y77.703 E3.17551
G1 X129.695 Y80.186 E3.25908
G1 X130.158 Y82.691 E3.34381
G1 X130.677 Y85.119 E3.42639
G1 X131.27 Y87.559 E3.50991
G1 X131.941 Y90.008 E3.59436
G1 X132.673 Y92.411 E3.67791
G1 X133.472 Y94.792 E3.76145
G1 X134.343 Y97.164 E3.84549
G1 X135.279 Y99.505 E3.92934
G1 X136.414 Y102.115 E4.02401
G1 X136.79 Y102.945 E4.05431
G1 X137.141 Y103.815 E4.08552
G1 X137.416 Y104.711 E4.11669
G1 X137.613 Y105.628 E4.14788
G1 X137.732 Y106.558 E4.17907
G1 X137.764 Y107.088 E4.19673
G1 X137.783 Y107.817 E4.22098
G1 X137.782 Y142.447 E5.37278
G1 X137.773 Y143.174 E5.39696
G1 X137.722 Y144.111 E5.42817
G1 X137.59 Y145.039 E5.45935
G1 X137.381 Y145.953 E5.49053
G1 X137.094 Y146.846 E5.52173
G1 X136.732 Y147.712 E5.55295
G1 X136.298 Y148.543 E5.58413
G1 X135.794 Y149.334 E5.61533
G1 X135.225 Y150.079 E5.64651
G1 X134.594 Y150.774 E5.67773
G1 X133.907 Y151.412 E5.70891
G1 X133.168 Y151.989 E5.7401
G1 X132.382 Y152.501 E5.7713
G1 X131.556 Y152.944 E5.80247
G1 X130.694 Y153.316 E5.8337
G1 X129.805 Y153.612 E5.86486
G1 X128.893 Y153.832 E5.89606
G1 X127.966 Y153.973 E5.92725
G1 X127.082 Y154.034 E5.95672
G1 X126.453 Y154.047 E5.97765
G1 X94.693 Y154.046 E7.03399
G1 X93.994 Y154.036 E7.05724
G1 X93.057 Y153.982 E7.08846
G1 X92.129 Y153.85 E7.11963
G1 X91.215 Y153.638 E7.15084
G1 X90.323 Y153.349 E7.18203
G1 X89.458 Y152.986 E7.21323
G1 X88.628 Y152.55 E7.24441
G1 X87.838 Y152.045 E7.2756
G1 X87.093 Y151.474 E7.30681
G1 X86.4 Y150.842 E7.33801
G1 X85.763 Y150.154 E7.36919
G1 X85.188 Y149.413 E7.40039
G1 X84.677 Y148.627 E7.43157
G1 X84.268 Y147.867 E7.46028
G1 X83.846 Y147.003 E7.49226
G1 X82.669 Y144.671 E7.57914
G1 X81.465 Y142.446 E7.66328
G1 X80.217 Y140.287 E7.74623
G1 X78.9 Y138.15 E7.82972
G1 X77.517 Y136.042 E7.91357
G1 X76.066 Y133.963 E7.9979
G1 X74.575 Y131.947 E8.08129
G1 X73.017 Y129.962 E8.16522
G1 X71.423 Y128.045 E8.24815
G1 X69.727 Y126.121 E8.33345
G1 X68.039 Y124.309 E8.41582
G1 X66.276 Y122.521 E8.49933
G1 X64.443 Y120.765 E8.58376
G1 X62.561 Y119.063 E8.66816
G1 X60.679 Y117.454 E8.75051
G1 X58.71 Y115.864 E8.83469
G1 X56.699 Y114.334 E8.91873
G1 X54.662 Y112.871 E9.00214
G1 X52.579 Y111.465 E9.08573
G1 X50.459 Y110.117 E9.16929
G1 X47.853 Y108.57 E9.27009
G1 X47.061 Y108.068 E9.30127
G1 X46.315 Y107.499 E9.33248
G1 X45.62 Y106.869 E9.36368
G1 X44.982 Y106.183 E9.39484
G1 X44.404 Y105.444 E9.42604
G1 X43.891 Y104.659 E9.45723
G1 X43.447 Y103.833 E9.48842
G1 X43.074 Y102.972 E9.51963
G1 X42.777 Y102.083 E9.55081
G1 X42.556 Y101.171 E9.58202
G1 X42.414 Y100.244 E9.61321
G1 X42.353 Y99.381 E9.64198
G1 X42.338 Y98.718 E9.66404
G1 X42.339 Y66.962 E10.72025
G1 X42.348 Y66.273 E10.74317
G1 X42.4 Y65.337 E10.77435
G1 X42.532 Y64.408 E10.80556
G1 X42.742 Y63.494 E10.83675
G1 X43.03 Y62.602 E10.86793
G1 X43.392 Y61.737 E10.89911
G1 X43.827 Y60.906 E10.93031
G1 X44.331 Y60.115 E10.96151
G1 X44.901 Y59.37 E10.9927
G1 X45.532 Y58.676 E11.0239
G1 X46.22 Y58.038 E11.05511
G0 F6000 X46.609 Y58.235
G1 F1200 X47.344 Y57.681 E11.08572
G1 X48.125 Y57.193 E11.11635
G1 X48.945 Y56.774 E11.14698
G1 X49.798 Y56.429 E11.17758
G1 X50.678 Y56.158 E11.20821
G1 X51.578 Y55.966 E11.23882
G1 X52.492 Y55.852 E11.26945
G1 X53.05 Y55.821 E11.28804
G1 X53.668 Y55.808 E11.3086
G1 X88.356 Y55.809 E12.46233
G1 X89.064 Y55.82 E12.48588
G1 X89.983 Y55.875 E12.5165
G1 X90.894 Y56.008 E12.54712
G1 X91.789 Y56.221 E12.57772
G1 X92.4 Y56.414 E12.59903
G1 X94.581 Y57.177 E12.67588
G1 X97.051 Y57.97 E12.76216
G1 X99.438 Y58.663 E12.84483
G1 X101.904 Y59.302 E12.92956
G1 X104.4 Y59.875 E13.01474
G1 X106.848 Y60.365 E13.09778
G1 X109.338 Y60.79 E13.18179
G1 X111.842 Y61.145 E13.26591
G1 X114.375 Y61.431 E13.35069
G1 X116.892 Y61.644 E13.43471
G1 X118.396 Y61.746 E13.48484
G1 X119.311 Y61.849 E13.51547
G1 X120.214 Y62.03 E13.5461
G1 X121.097 Y62.289 E13.57671
G1 X121.955 Y62.623 E13.60733
G1 X122.781 Y63.031 E13.63797
G1 X123.568 Y63.509 E13.6686
G1 X124.31 Y64.053 E13.6992
G1 X125.003 Y64.66 E13.72984
G1 X125.64 Y65.324 E13.76044
G1 X126.217 Y66.041 E13.79105
G1 X126.73 Y66.806 E13.82169
G1 X127.174 Y67.612 E13.85229
G1 X127.547 Y68.454 E13.88292
G1 X127.845 Y69.325 E13.91354
G1 X128.067 Y70.219 E13.94418
G1 X128.241 Y71.436 E13.98507
G1 X128.343 Y72.65 E14.02559
G1 X128.599 Y75.268 E14.11308
G1 X128.912 Y77.743 E14.19605
G1 X129.307 Y80.288 E14.28171
G1 X129.76 Y82.743 E14.36475
G1 X130.291 Y85.226 E14.4492
G1 X130.882 Y87.655 E14.53234
G1 X131.556 Y90.115 E14.61718
G1 X132.29 Y92.528 E14.70107
G1 X133.1 Y94.941 E14.78573
G1 X133.972 Y97.314 E14.86981
G1 X134.905 Y99.648 E14.95341
G1 X136.03 Y102.235 E15.04724
G1 X136.426 Y103.11 E15.07919
G1 X136.769 Y103.964 E15.1098
G1 X137.037 Y104.845 E15.14042
G1 X137.227 Y105.746 E15.17105
G1 X137.364 Y107.102 E15.21638
G1 X137.383 Y107.817 E15.24017
G1 X137.382 Y142.442 E16.3918
G1 X137.373 Y143.169 E16.41598
G1 X137.322 Y144.088 E16.4466
G1 X137.191 Y145 E16.47724
G1 X136.981 Y145.896 E16.50785
G1 X136.695 Y146.771 E16.53847
G1 X136.334 Y147.618 E16.56909
G1 X135.9 Y148.43 E16.59971
G1 X135.398 Y149.202 E16.63034
G1 X134.83 Y149.927 E16.66097
G1 X134.202 Y150.6 E16.69159
G1 X133.518 Y151.216 E16.72221
G1 X132.783 Y151.77 E16.75282
G1 X132.003 Y152.259 E16.78344
G1 X131.183 Y152.678 E16.81407
G1 X130.33 Y153.024 E16.84468
G1 X129.45 Y153.295 E16.87531
G1 X128.55 Y153.488 E16.90592
G1 X127.636 Y153.603 E16.93656
G1 X127.071 Y153.634 E16.95538
G1 X126.453 Y153.647 E16.97594
G1 X94.698 Y153.646 E18.03212
G1 X93.999 Y153.636 E18.05537
G1 X93.08 Y153.583 E18.08598
G1 X92.169 Y153.45 E18.11661
G1 X91.273 Y153.239 E18.14722
G1 X90.399 Y152.951 E18.17783
G1 X89.553 Y152.588 E18.20845
G1 X88.741 Y152.153 E18.23909
G1 X87.971 Y151.649 E18.2697
G1 X87.247 Y151.08 E18.30032
G1 X86.575 Y150.451 E18.33094
G1 X85.96 Y149.765 E18.36158
G1 X85.407 Y149.029 E18.3922
G1 X84.92 Y148.248 E18.42281
G1 X84.628 Y147.692 E18.4437
G1 X84.205 Y146.826 E18.47576
G1 X83.027 Y144.494 E18.56265
G1 X81.82 Y142.262 E18.64705
G1 X80.561 Y140.083 E18.73075
G1 X79.226 Y137.917 E18.81538
G1 X77.853 Y135.824 E18.89863
G1 X76.4 Y133.742 E18.98307
G1 X74.879 Y131.685 E19.06816
G1 X73.34 Y129.726 E19.15102
G1 X71.714 Y127.771 E19.23559
G1 X70.053 Y125.886 E19.31916
G1 X68.299 Y124.003 E19.40475
G1 X66.555 Y122.234 E19.48737
G1 X64.724 Y120.481 E19.57168
G1 X62.841 Y118.777 E19.65615
G1 X60.927 Y117.14 E19.73991
G1 X58.958 Y115.55 E19.82409
G1 X56.929 Y114.006 E19.90889
G1 X54.873 Y112.531 E19.99305
G1 X52.812 Y111.139 E20.07577
G1 X50.657 Y109.769 E20.16071
G1 X48.053 Y108.224 E20.26141
G1 X47.276 Y107.73 E20.29204
G1 X46.545 Y107.17 E20.32266
G1 X45.865 Y106.549 E20.35329
G1 X45.242 Y105.871 E20.38392
G1 X44.68 Y105.142 E20.41453
G1 X44.183 Y104.367 E20.44515
G1 X43.756 Y103.552 E20.47576
G1 X43.4 Y102.703 E20.50638
G1 X43.12 Y101.826 E20.537
G1 X42.917 Y100.928 E20.56762
G1 X42.793 Y100.015 E20.59826
G1 X42.753 Y99.369 E20.61979
G1 X42.738 Y98.718 E20.64145
G1 X42.739 Y66.968 E21.69746
G1 X42.748 Y66.279 E21.72037
G1 X42.8 Y65.359 E21.75102
G1 X42.931 Y64.448 E21.78163
G1 X43.142 Y63.552 E21.81225
G1 X43.429 Y62.677 E21.84288
G1 X43.791 Y61.831 E21.87348
G1 X44.225 Y61.019 E21.90411
G1 X44.727 Y60.247 E21.93474
G1 X45.295 Y59.523 E21.96534
G1 X45.924 Y58.85 E21.99598
G1 X46.609 Y58.235 E22.0266
G0 F6000 X46.997 Y58.435
G1 F1200 X47.728 Y57.905 E22.05663
G1 X48.502 Y57.441 E22.08665
G1 X49.315 Y57.048 E22.11668
G1 X50.16 Y56.728 E22.14673
G1 X51.03 Y56.484 E22.17678
G1 X51.917 Y56.318 E22.2068
G1 X53.061 Y56.221 E22.24498
G1 X53.668 Y56.208 E22.26518
G1 X88.349 Y56.209 E23.41867
G1 X89.057 Y56.22 E23.44222
G1 X89.959 Y56.274 E23.47228
G1 X90.852 Y56.408 E23.50231
G1 X91.73 Y56.62 E23.53235
G1 X92.267 Y56.791 E23.5511
G1 X94.475 Y57.564 E23.62891
G1 X96.922 Y58.349 E23.71438
G1 X99.363 Y59.058 E23.79892
G1 X101.778 Y59.684 E23.8819
G1 X104.311 Y60.265 E23.96834
G1 X106.768 Y60.756 E24.05167
G1 X109.291 Y61.187 E24.1368
G1 X111.808 Y61.544 E24.22136
G1 X114.295 Y61.825 E24.3046
G1 X116.895 Y62.045 E24.39139
G1 X118.369 Y62.145 E24.44052
G1 X119.267 Y62.246 E24.47058
G1 X120.152 Y62.426 E24.50062
G1 X121.017 Y62.684 E24.53064
G1 X121.857 Y63.017 E24.5607
G1 X122.663 Y63.423 E24.59071
G1 X123.431 Y63.899 E24.62076
G1 X124.153 Y64.441 E24.65079
G1 X124.825 Y65.045 E24.68084
G1 X125.441 Y65.705 E24.71087
G1 X125.996 Y66.418 E24.74092
G1 X126.485 Y67.177 E24.77095
G1 X126.906 Y67.976 E24.80099
G1 X127.254 Y68.809 E24.83102
G1 X127.527 Y69.67 E24.86106
G1 X127.723 Y70.552 E24.89111
G1 X127.842 Y71.469 E24.92187
G1 X127.939 Y72.629 E24.96058
G1 X128.202 Y75.32 E25.05051
G1 X128.518 Y77.818 E25.13426
G1 X128.906 Y80.316 E25.21834
G1 X129.37 Y82.834 E25.3035
G1 X129.896 Y85.29 E25.38704
G1 X130.504 Y87.79 E25.47261
G1 X131.164 Y90.2 E25.55572
G1 X131.912 Y92.657 E25.64114
G1 X132.722 Y95.069 E25.72577
G1 X133.597 Y97.452 E25.8102
G1 X134.531 Y99.79 E25.89394
G1 X135.681 Y102.433 E25.98981
G1 X136.062 Y103.275 E26.02054
G1 X136.398 Y104.113 E26.05057
G1 X136.658 Y104.978 E26.08061
G1 X136.841 Y105.862 E26.11064
G1 X136.964 Y107.117 E26.15258
G1 X136.983 Y107.817 E26.17587
G1 X136.982 Y142.437 E27.32734
G1 X136.973 Y143.164 E27.35152
G1 X136.922 Y144.066 E27.38157
G1 X136.791 Y144.96 E27.41162
G1 X136.582 Y145.838 E27.44164
G1 X136.296 Y146.695 E27.47169
G1 X135.935 Y147.523 E27.50173
G1 X135.503 Y148.315 E27.53174
G1 X135.002 Y149.067 E27.56179
G1 X134.436 Y149.771 E27.59184
G1 X133.811 Y150.422 E27.62185
G1 X133.13 Y151.016 E27.65191
G1 X132.399 Y151.547 E27.68196
G1 X131.625 Y152.011 E27.71197
G1 X130.812 Y152.405 E27.74202
G1 X129.968 Y152.725 E27.77204
G1 X129.098 Y152.97 E27.8021
G1 X128.211 Y153.136 E27.83212
G1 X127.06 Y153.234 E27.87054
G1 X126.453 Y153.247 E27.89073
G1 X94.704 Y153.246 E28.94671
G1 X94.005 Y153.236 E28.96996
G1 X93.104 Y153.183 E28.99998
G1 X92.21 Y153.051 E29.03004
G1 X91.332 Y152.84 E29.06007
G1 X90.476 Y152.552 E29.09011
G1 X89.649 Y152.19 E29.12014
G1 X88.857 Y151.756 E29.15017
G1 X88.106 Y151.253 E29.18024
G1 X87.403 Y150.686 E29.21028
G1 X86.753 Y150.059 E29.24031
G1 X86.161 Y149.377 E29.27035
G1 X85.632 Y148.646 E29.30036
G1 X84.987 Y147.516 E29.34364
G1 X84.563 Y146.649 E29.37574
G1 X83.371 Y144.287 E29.46374
G1 X82.184 Y142.093 E29.5467
G1 X80.89 Y139.853 E29.63274
G1 X79.584 Y137.735 E29.7155
G1 X78.171 Y135.581 E29.80119
G1 X76.717 Y133.498 E29.88568
G1 X75.216 Y131.468 E29.96965
G1 X73.629 Y129.447 E30.05511
G1 X72.038 Y127.534 E30.13787
G1 X70.329 Y125.594 E30.22386
G1 X68.594 Y123.732 E30.30851
G1 X66.834 Y121.947 E30.39188
G1 X65.004 Y120.194 E30.47617
G1 X63.106 Y118.477 E30.5613
G1 X61.192 Y116.841 E30.64504
G1 X59.168 Y115.206 E30.73158
G1 X57.199 Y113.708 E30.81387
G1 X55.124 Y112.219 E30.89881
G1 X53.012 Y110.792 E30.98359
G1 X50.846 Y109.416 E31.06894
G1 X48.253 Y107.877 E31.16923
G1 X47.491 Y107.392 E31.19927
G1 X46.775 Y106.841 E31.22932
G1 X46.111 Y106.229 E31.25936
G1 X45.504 Y105.561 E31.28938
G1 X44.958 Y104.842 E31.3194
G1 X44.478 Y104.077 E31.34944
G1 X44.067 Y103.272 E31.3795
G1 X43.729 Y102.435 E31.40953
G1 X43.467 Y101.571 E31.43956
G1 X43.282 Y100.687 E31.46959
G1 X43.153 Y99.357 E31.51404
G1 X43.138 Y98.718 E31.5353
G1 X43.139 Y66.973 E32.59114
G1 X43.148 Y66.284 E32.61406
G1 X43.2 Y65.382 E32.64411
G1 X43.331 Y64.489 E32.67413
G1 X43.541 Y63.61 E32.70419
G1 X43.827 Y62.754 E32.7342
G1 X44.189 Y61.926 E32.76426
G1 X44.622 Y61.134 E32.79428
G1 X45.123 Y60.383 E32.82431
G1 X45.689 Y59.679 E32.85435
G1 X46.315 Y59.028 E32.88439
G1 X46.997 Y58.435 E32.91445
G1 F1500 E26.41445
;MESH:Sensor Mount.STL
G0 F6000 X56.292 Y69.386
G0 X58.993 Y73.971
;TYPE:WALL-INNER
G1 F1500 E32.91445
G1 F1200 X58.532 Y74.029 E32.9299
G1 X58.083 Y74.01 E32.94485
G1 X57.642 Y73.918 E32.95984
G1 X57.204 Y73.743 E32.97552
G1 X56.811 Y73.502 E32.99086
G1 X56.466 Y73.198 E33.00615
G1 X56.178 Y72.842 E33.02138
G1 X55.957 Y72.447 E33.03643
G1 X55.802 Y72.013 E33.05176
G1 X55.726 Y71.564 E33.06691
G1 X55.726 Y71.094 E33.08254
G1 X55.803 Y70.645 E33.09769
G1 X55.958 Y70.21 E33.11305
G1 X56.181 Y69.813 E33.1282
G1 X56.463 Y69.466 E33.14307
G1 X56.812 Y69.154 E33.15864
G1 X57.204 Y68.913 E33.17394
G1 X57.636 Y68.743 E33.18938
G1 X58.051 Y68.654 E33.2035
G1 X58.505 Y68.631 E33.21862
G1 X58.985 Y68.685 E33.23469
G1 X59.424 Y68.821 E33.24997
G1 X59.835 Y69.028 E33.26528
G1 X60.204 Y69.301 E33.28054
G1 X60.523 Y69.633 E33.29586
G1 X60.779 Y70.01 E33.31101
G1 X60.945 Y70.381 E33.32453
G1 X60.978 Y70.474 E33.32782
G1 X61.083 Y70.872 E33.34151
G1 X61.12 Y71.326 E33.35666
G1 X61.083 Y71.789 E33.3721
G1 X60.964 Y72.23 E33.3873
G1 X60.779 Y72.642 E33.40232
G1 X60.527 Y73.018 E33.41737
G1 X60.216 Y73.343 E33.43233
G1 X59.86 Y73.611 E33.44715
G1 X59.427 Y73.833 E33.46334
G1 X58.993 Y73.971 E33.47849
G0 F6000 X58.531 Y73.626
;TYPE:WALL-OUTER
G1 F1200 X58.113 Y73.608 E33.4924
G1 X57.742 Y73.527 E33.50503
G1 X57.37 Y73.376 E33.51838
G1 X57.064 Y73.188 E33.53033
G1 X56.745 Y72.907 E33.54447
G1 X56.502 Y72.601 E33.55747
G1 X56.317 Y72.264 E33.57025
G1 X56.187 Y71.891 E33.58339
G1 X56.128 Y71.539 E33.59526
G1 X56.128 Y71.119 E33.60923
G1 X56.187 Y70.767 E33.6211
G1 X56.317 Y70.393 E33.63427
G1 X56.502 Y70.057 E33.64703
G1 X56.768 Y69.726 E33.66115
G1 X57.038 Y69.488 E33.67312
G1 X57.4 Y69.266 E33.68725
G1 X57.742 Y69.131 E33.69948
G1 X58.12 Y69.048 E33.71235
