;FLAVOR:Marlin
;TIME:282
;Filament used: 0.164313m
;Layer height: 0.2
;MINX:92.902
;MINY:102.9
;MINZ:0.4
;MAXX:127.1
;MAXY:117.1
;MAXZ:3
;Generated with Cura_SteamEngine main
M82 ;absolute extrusion mode
; Ender 3 Custom Start G-code
G92 E0 ; Reset Extruder
G28 ; Home all axes
M104 S175 ; Start heating up the nozzle most of the way
M190 S55 ; Start heating the bed, wait until target temperature reached
M109 S205 ; Finish heating the nozzle
G1 Z2.0 F3000 ; Move Z Axis up little to prevent scratching of Heat Bed
G1 X0.1 Y20 Z0.3 F5000.0 ; Move to start position
G1 X0.1 Y200.0 Z0.3 F1500.0 E15 ; Draw the first line
G1 X0.4 Y200.0 Z0.3 F5000.0 ; Move to side a little
G1 X0.4 Y20 Z0.3 F1500.0 E30 ; Draw the second line
G92 E0 ; Reset Extruder
G1 Z2.0 F3000 ; Move Z Axis up little to prevent scratching of Heat Bed
G1 X5 Y20 Z0.3 F5000.0 ; Move over to prevent blob squish
G92 E0
G92 E0
G1 F3000 E-6.5
;LAYER_COUNT:14
;LAYER:0
M107
G0 F6000 X95.277 Y104.725 Z0.4
G0 X92.902 Y110.119
;TYPE:SKIRT
G1 F3000 E0
G1 F1200 X92.957 Y109.277 E0.05725
G1 X93.08 Y108.504 E0.11036
G1 X93.215 Y107.913 E0.15149
G1 X93.524 Y107.139 E0.20804
G1 X93.879 Y106.442 E0.26111
G1 X94.189 Y105.921 E0.30225
G1 X94.725 Y105.277 E0.3591
G1 X95.277 Y104.725 E0.41206
G1 X95.733 Y104.326 E0.45318
G1 X96.442 Y103.879 E0.51005
G1 X97.139 Y103.524 E0.56312
G1 X97.697 Y103.285 E0.60431
G1 X98.505 Y103.08 E0.66087
G1 X99.279 Y102.957 E0.71404
G1 X100.001 Y102.9 E0.76318
G1 X122.5 Y102.9 E2.28975
G1 X123.105 Y102.94 E2.33089
G1 X123.699 Y103.059 E2.372
G1 X124.273 Y103.255 E2.41315
G1 X124.816 Y103.526 E2.45433
G1 X125.319 Y103.865 E2.49548
G1 X125.772 Y104.267 E2.53658
G1 X126.169 Y104.725 E2.5777
G1 X126.502 Y105.232 E2.61886
G1 X126.766 Y105.778 E2.66001
G1 X126.955 Y106.354 E2.70114
G1 X127.067 Y106.95 E2.74229
G1 X127.1 Y107.5 E2.77967
G1 X127.1 Y112.5 E3.11893
G1 X127.06 Y113.105 E3.16007
G1 X126.941 Y113.699 E3.20117
G1 X126.745 Y114.273 E3.24233
G1 X126.474 Y114.816 E3.2835
G1 X126.135 Y115.319 E3.32466
G1 X125.733 Y115.772 E3.36575
G1 X125.275 Y116.169 E3.40688
G1 X124.768 Y116.502 E3.44803
G1 X124.222 Y116.766 E3.48918
G1 X123.646 Y116.955 E3.53032
G1 X123.05 Y117.067 E3.57146
G1 X122.5 Y117.1 E3.60885
G1 X100.001 Y117.1 E5.13542
G1 X99.279 Y117.043 E5.18456
G1 X98.505 Y116.92 E5.23774
G1 X97.914 Y116.786 E5.27885
G1 X97.139 Y116.476 E5.33549
G1 X96.442 Y116.121 E5.38856
G1 X95.921 Y115.811 E5.4297
G1 X95.277 Y115.275 E5.48655
G1 X94.725 Y114.723 E5.53951
G1 X94.326 Y114.267 E5.58063
G1 X93.879 Y113.558 E5.63749
G1 X93.524 Y112.861 E5.69057
G1 X93.285 Y112.303 E5.73175
G1 X93.08 Y111.496 E5.78825
G1 X92.957 Y110.723 E5.84136
G1 X92.902 Y110.119 E5.88251
G0 F6000 X93.301 Y110.083
G1 F1200 X93.352 Y109.34 E5.93304
G1 X93.475 Y108.567 E5.98615
G1 X93.605 Y108.003 E6.02542
G1 X93.88 Y107.321 E6.07531
G1 X94.235 Y106.624 E6.12839
G1 X94.533 Y106.127 E6.16771
G1 X95.008 Y105.56 E6.21789
G1 X95.56 Y105.008 E6.27086
G1 X95.997 Y104.628 E6.31015
G1 X96.624 Y104.235 E6.36036
G1 X97.321 Y103.88 E6.41343
G1 X97.854 Y103.654 E6.45272
G1 X98.568 Y103.475 E6.50266
G1 X99.342 Y103.352 E6.55584
G1 X100.001 Y103.3 E6.60069
G1 X122.5 Y103.3 E8.12726
G1 X123.078 Y103.34 E8.16657
G1 X123.645 Y103.459 E8.20588
G1 X124.19 Y103.655 E8.24518
G1 X124.703 Y103.924 E8.28448
G1 X125.174 Y104.261 E8.32378
G1 X125.594 Y104.66 E8.36308
G1 X125.956 Y105.113 E8.40243
G1 X126.251 Y105.611 E8.4417
G1 X126.476 Y106.145 E8.48102
G1 X126.624 Y106.705 E8.52032
G1 X126.7 Y107.5 E8.57451
G1 X126.7 Y112.5 E8.91376
G1 X126.66 Y113.078 E8.95307
G1 X126.541 Y113.645 E8.99238
G1 X126.345 Y114.19 E9.03168
G1 X126.076 Y114.703 E9.07098
G1 X125.739 Y115.174 E9.11028
G1 X125.34 Y115.594 E9.14958
G1 X124.887 Y115.956 E9.18893
G1 X124.389 Y116.251 E9.2282
G1 X123.855 Y116.476 E9.26752
G1 X123.295 Y116.624 E9.30682
G1 X122.5 Y116.7 E9.36101
G1 X100.001 Y116.7 E10.88758
G1 X99.342 Y116.648 E10.93243
G1 X98.568 Y116.525 E10.98561
G1 X98.003 Y116.395 E11.02494
G1 X97.321 Y116.12 E11.07484
G1 X96.624 Y115.765 E11.12791
G1 X96.127 Y115.467 E11.16723
G1 X95.56 Y114.992 E11.21742
G1 X95.008 Y114.44 E11.27038
G1 X94.628 Y114.003 E11.30968
G1 X94.235 Y113.376 E11.35989
G1 X93.88 Y112.679 E11.41296
G1 X93.654 Y112.146 E11.45224
G1 X93.475 Y111.433 E11.50212
G1 X93.352 Y110.66 E11.55523
G1 X93.301 Y110.083 E11.59453
G0 F6000 X93.7 Y110.048
G1 F1200 X93.747 Y109.403 E11.63841
G1 X93.87 Y108.63 E11.69152
G1 X93.996 Y108.093 E11.72894
G1 X94.237 Y107.502 E11.77225
G1 X94.592 Y106.805 E11.82532
G1 X94.877 Y106.334 E11.86267
G1 X95.291 Y105.843 E11.90625
G1 X95.843 Y105.291 E11.95922
G1 X96.26 Y104.931 E11.9966
G1 X96.805 Y104.592 E12.04015
G1 X97.502 Y104.237 E12.09322
G1 X98.01 Y104.023 E12.13062
G1 X98.631 Y103.87 E12.17402
G1 X99.405 Y103.747 E12.22719
G1 X100.001 Y103.7 E12.26775
G1 X122.5 Y103.7 E13.79433
G1 X123.05 Y103.74 E13.83174
G1 X123.588 Y103.859 E13.86913
G1 X124.103 Y104.055 E13.90652
G1 X124.584 Y104.323 E13.94388
G1 X125.022 Y104.657 E13.98125
G1 X125.406 Y105.052 E14.01863
G1 X125.73 Y105.498 E14.05603
G1 X125.985 Y105.986 E14.09339
G1 X126.168 Y106.506 E14.1308
G1 X126.273 Y107.047 E14.16819
G1 X126.3 Y107.5 E14.19898
G1 X126.3 Y112.5 E14.53823
G1 X126.26 Y113.05 E14.57565
G1 X126.141 Y113.588 E14.61303
G1 X125.945 Y114.103 E14.65042
G1 X125.677 Y114.584 E14.68778
G1 X125.343 Y115.022 E14.72516
G1 X124.948 Y115.406 E14.76253
G1 X124.502 Y115.73 E14.79994
G1 X124.014 Y115.985 E14.8373
G1 X123.494 Y116.168 E14.8747
G1 X122.953 Y116.273 E14.91209
G1 X122.5 Y116.3 E14.94288
G1 X100.001 Y116.3 E16.46946
G1 X99.405 Y116.253 E16.51002
G1 X98.631 Y116.13 E16.5632
G1 X98.094 Y116.004 E16.60062
G1 X97.502 Y115.763 E16.64399
G1 X96.805 Y115.408 E16.69706
G1 X96.334 Y115.123 E16.73442
G1 X95.843 Y114.709 E16.77799
G1 X95.291 Y114.157 E16.83096
G1 X94.931 Y113.74 E16.86834
G1 X94.592 Y113.195 E16.91189
G1 X94.237 Y112.498 E16.96496
G1 X94.023 Y111.99 E17.00236
G1 X93.87 Y111.37 E17.04569
G1 X93.747 Y110.597 E17.0988
G1 X93.7 Y110.048 E17.13619
G0 F6000 X94.1 Y110.015
G1 F1200 X94.142 Y109.466 E17.17354
G1 X94.265 Y108.693 E17.22665
G1 X94.386 Y108.186 E17.26202
G1 X94.593 Y107.684 E17.29886
G1 X94.948 Y106.987 E17.35193
G1 X95.22 Y106.542 E17.38732
G1 X95.574 Y106.126 E17.42438
G1 X96.126 Y105.574 E17.47735
G1 X96.522 Y105.235 E17.51272
G1 X96.987 Y104.948 E17.5498
G1 X97.684 Y104.593 E17.60287
G1 X98.165 Y104.393 E17.63822
G1 X98.693 Y104.265 E17.67508
G1 X99.467 Y104.142 E17.72825
G1 X100.001 Y104.1 E17.7646
G1 X122.5 Y104.1 E19.29117
G1 X123.02 Y104.14 E19.32656
G1 X123.527 Y104.259 E19.36189
G1 X124.01 Y104.454 E19.39723
G1 X124.458 Y104.72 E19.43259
G1 X124.86 Y105.052 E19.46796
G1 X125.206 Y105.442 E19.50334
G1 X125.489 Y105.88 E19.53872
G1 X125.702 Y106.355 E19.57404
G1 X125.839 Y106.858 E19.60941
G1 X125.9 Y107.5 E19.65317
G1 X125.9 Y112.5 E19.99242
G1 X125.86 Y113.02 E20.02781
G1 X125.741 Y113.527 E20.06314
G1 X125.546 Y114.01 E20.09848
G1 X125.28 Y114.458 E20.13384
G1 X124.948 Y114.86 E20.16921
G1 X124.558 Y115.206 E20.20459
G1 X124.12 Y115.489 E20.23997
G1 X123.645 Y115.702 E20.27529
G1 X123.142 Y115.839 E20.31066
G1 X122.5 Y115.9 E20.35442
G1 X100.001 Y115.9 E21.88099
G1 X99.467 Y115.858 E21.91733
G1 X98.693 Y115.735 E21.97051
G1 X98.186 Y115.614 E22.00588
G1 X97.684 Y115.407 E22.04272
G1 X96.987 Y115.052 E22.09579
G1 X96.542 Y114.78 E22.13118
G1 X96.126 Y114.426 E22.16824
G1 X95.574 Y113.874 E22.22121
G1 X95.235 Y113.478 E22.25658
G1 X94.948 Y113.013 E22.29365
G1 X94.593 Y112.316 E22.34673
G1 X94.393 Y111.835 E22.38207
G1 X94.265 Y111.307 E22.41893
G1 X94.142 Y110.534 E22.47204
G1 X94.1 Y110.015 E22.50737
G0 F6000 X94.5 Y109.983
G1 F1200 X94.537 Y109.529 E22.53828
G1 X94.66 Y108.756 E22.59139
G1 X94.776 Y108.28 E22.62463
G1 X94.95 Y107.865 E22.65516
G1 X95.305 Y107.168 E22.70823
G1 X95.562 Y106.752 E22.74141
G1 X95.857 Y106.409 E22.77211
G1 X96.409 Y105.857 E22.82508
G1 X96.782 Y105.54 E22.85829
G1 X97.168 Y105.305 E22.88895
G1 X97.865 Y104.95 E22.94202
G1 X98.318 Y104.764 E22.97525
G1 X98.756 Y104.66 E23.0058
G1 X99.53 Y104.537 E23.05897
G1 X100.001 Y104.5 E23.09103
G1 X122.5 Y104.5 E24.6176
G1 X122.988 Y104.54 E24.65082
G1 X123.463 Y104.659 E24.68405
G1 X123.912 Y104.853 E24.71723
G1 X124.324 Y105.118 E24.75047
G1 X124.687 Y105.446 E24.78367
G1 X124.992 Y105.829 E24.81689
G1 X125.23 Y106.257 E24.85011
G1 X125.396 Y106.717 E24.8833
G1 X125.485 Y107.198 E24.91649
G1 X125.5 Y107.5 E24.937
G1 X125.5 Y112.5 E25.27626
G1 X125.46 Y112.988 E25.30948
G1 X125.341 Y113.463 E25.3427
G1 X125.147 Y113.912 E25.37589
G1 X124.882 Y114.324 E25.40913
G1 X124.554 Y114.687 E25.44232
G1 X124.171 Y114.992 E25.47554
G1 X123.743 Y115.23 E25.50877
G1 X123.283 Y115.396 E25.54195
G1 X122.802 Y115.485 E25.57514
G1 X122.5 Y115.5 E25.59566
G1 X100.001 Y115.5 E27.12223
G1 X99.53 Y115.463 E27.15429
G1 X98.756 Y115.34 E27.20746
G1 X98.281 Y115.224 E27.24064
G1 X97.865 Y115.05 E27.27123
G1 X97.168 Y114.695 E27.32431
G1 X96.752 Y114.438 E27.35749
G1 X96.409 Y114.143 E27.38818
G1 X95.857 Y113.591 E27.44115
G1 X95.54 Y113.218 E27.47436
G1 X95.305 Y112.832 E27.50502
G1 X94.95 Y112.135 E27.5581
G1 X94.764 Y111.682 E27.59132
G1 X94.66 Y111.244 E27.62187
G1 X94.537 Y110.471 E27.67498
G1 X94.5 Y109.983 E27.70818
G0 F6000 X94.9 Y109.954
G1 F1200 X94.932 Y109.591 E27.73291
G1 X95.055 Y108.818 E27.78602
G1 X95.166 Y108.376 E27.81694
G1 X95.306 Y108.047 E27.8412
G1 X95.661 Y107.35 E27.89427
G1 X95.903 Y106.964 E27.92518
G1 X96.14 Y106.692 E27.94966
G1 X96.692 Y106.14 E28.00263
G1 X97.041 Y105.847 E28.03355
G1 X97.35 Y105.661 E28.05802
G1 X98.047 Y105.306 E28.11109
G1 X98.47 Y105.136 E28.14202
G1 X98.819 Y105.055 E28.16633
G1 X99.593 Y104.932 E28.21951
G1 X100.001 Y104.9 E28.24728
G1 X122.5 Y104.9 E29.77385
G1 X122.954 Y104.94 E29.80477
G1 X123.394 Y105.058 E29.83568
G1 X123.806 Y105.252 E29.86658
G1 X124.179 Y105.515 E29.89755
G1 X124.5 Y105.838 E29.92844
G1 X124.759 Y106.213 E29.95937
G1 X124.949 Y106.627 E29.99027
G1 X125.064 Y107.068 E30.0212
G1 X125.1 Y107.5 E30.05061
G1 X125.1 Y112.5 E30.38986
G1 X125.06 Y112.954 E30.42079
G1 X124.942 Y113.394 E30.4517
G1 X124.748 Y113.806 E30.48259
G1 X124.485 Y114.179 E30.51356
G1 X124.162 Y114.5 E30.54446
G1 X123.787 Y114.759 E30.57538
G1 X123.373 Y114.949 E30.60629
G1 X122.932 Y115.064 E30.63721
G1 X122.5 Y115.1 E30.66662
G1 X100.001 Y115.1 E32.1932
G1 X99.593 Y115.068 E32.22096
G1 X98.819 Y114.945 E32.27414
G1 X98.377 Y114.834 E32.30506
G1 X98.047 Y114.694 E32.32938
G1 X97.35 Y114.339 E32.38246
G1 X96.964 Y114.097 E32.41337
G1 X96.692 Y113.86 E32.43785
G1 X96.14 Y113.308 E32.49081
G1 X95.847 Y112.959 E32.52173
G1 X95.661 Y112.65 E32.5462
G1 X95.306 Y111.953 E32.59928
G1 X95.136 Y111.53 E32.63021
G1 X95.055 Y111.182 E32.65445
G1 X94.932 Y110.409 E32.70756
G1 X94.9 Y109.954 E32.73851
G0 F6000 X95.301 Y109.927
G1 F1200 X95.327 Y109.654 E32.75712
G1 X95.45 Y108.881 E32.81022
G1 X95.555 Y108.476 E32.83861
G1 X95.663 Y108.229 E32.8569
G1 X96.018 Y107.532 E32.90998
G1 X96.243 Y107.178 E32.93844
G1 X96.422 Y106.974 E32.95685
G1 X96.974 Y106.422 E33.00982
G1 X97.298 Y106.156 E33.03826
G1 X97.532 Y106.018 E33.05669
G1 X98.229 Y105.663 E33.10977
G1 X98.618 Y105.509 E33.13815
G1 X98.882 Y105.45 E33.15651
G1 X99.656 Y105.327 E33.20968
G1 X100.001 Y105.3 E33.23316
G1 X122.5 Y105.3 E34.75974
G1 X122.917 Y105.34 E34.78816
G1 X123.319 Y105.458 E34.81659
G1 X123.691 Y105.651 E34.84502
G1 X124.02 Y105.91 E34.87343
G1 X124.294 Y106.227 E34.90186
G1 X124.503 Y106.59 E34.93028
G1 X124.639 Y106.987 E34.95875
G1 X124.7 Y107.5 E34.99381
G1 X124.7 Y112.5 E35.33306
G1 X124.66 Y112.917 E35.36148
G1 X124.542 Y113.319 E35.38991
G1 X124.349 Y113.691 E35.41835
G1 X124.09 Y114.02 E35.44676
G1 X123.773 Y114.294 E35.47519
G1 X123.41 Y114.503 E35.50361
G1 X123.013 Y114.639 E35.53208
G1 X122.5 Y114.7 E35.56713
G1 X100.001 Y114.7 E37.0937
G1 X99.656 Y114.673 E37.11719
G1 X98.882 Y114.55 E37.17036
G1 X98.476 Y114.445 E37.19881
G1 X98.229 Y114.337 E37.21711
G1 X97.532 Y113.982 E37.27018
G1 X97.178 Y113.757 E37.29864
G1 X96.974 Y113.578 E37.31705
G1 X96.422 Y113.026 E37.37002
G1 X96.156 Y112.702 E37.39846
G1 X96.018 Y112.468 E37.4169
G1 X95.663 Y111.771 E37.46997
G1 X95.509 Y111.382 E37.49836
G1 X95.45 Y111.119 E37.51664
G1 X95.327 Y110.346 E37.56975
G1 X95.301 Y109.927 E37.59824
G0 F6000 X95.722 Y109.717
G1 F1200 X95.845 Y108.944 E37.65134
G1 X96.019 Y108.41 E37.68945
G1 X96.374 Y107.713 E37.74252
G1 X96.705 Y107.257 E37.78076
G1 X97.257 Y106.705 E37.83372
G1 X97.713 Y106.374 E37.87196
G1 X98.41 Y106.019 E37.92503
G1 X98.944 Y105.845 E37.96314
G1 X99.718 Y105.722 E38.01631
G1 X100.001 Y105.7 E38.03557
G1 X122.5 Y105.7 E39.56214
G1 X122.877 Y105.74 E39.58787
G1 X123.237 Y105.858 E39.61357
G1 X123.564 Y106.048 E39.63923
G1 X123.845 Y106.303 E39.66498
G1 X124.065 Y106.612 E39.69071
G1 X124.217 Y106.959 E39.71642
G1 X124.3 Y107.5 E39.75356
G1 X124.3 Y112.5 E40.09281
G1 X124.26 Y112.877 E40.11853
G1 X124.142 Y113.237 E40.14424
G1 X123.952 Y113.564 E40.1699
G1 X123.697 Y113.845 E40.19564
G1 X123.388 Y114.065 E40.22138
G1 X123.041 Y114.217 E40.24708
G1 X122.5 Y114.3 E40.28422
G1 X100.001 Y114.3 E41.81079
G1 X99.718 Y114.278 E41.83005
G1 X98.944 Y114.155 E41.88323
G1 X98.41 Y113.981 E41.92134
G1 X97.713 Y113.626 E41.97441
G1 X97.257 Y113.295 E42.01264
G1 X96.705 Y112.743 E42.06561
G1 X96.374 Y112.287 E42.10384
G1 X96.019 Y111.59 E42.15691
G1 X95.845 Y111.056 E42.19502
G1 X95.722 Y110.283 E42.24813
G1 X95.722 Y109.717 E42.28653
G0 F6000 X96.117 Y109.78
G1 F1200 X96.24 Y109.007 E42.33964
G1 X96.375 Y108.592 E42.36925
G1 X96.73 Y107.895 E42.42232
G1 X96.988 Y107.54 E42.4521
G1 X97.54 Y106.988 E42.50507
G1 X97.895 Y106.73 E42.53484
G1 X98.592 Y106.375 E42.58792
G1 X99.007 Y106.24 E42.61753
G1 X99.888 Y106.1 E42.67805
G1 X122.5 Y106.1 E44.21229
G1 X122.832 Y106.14 E44.23498
G1 X123.144 Y106.257 E44.25759
G1 X123.421 Y106.445 E44.2803
G1 X123.644 Y106.693 E44.30293
G1 X123.803 Y106.987 E44.32561
G1 X123.9 Y107.361 E44.35183
G1 X123.9 Y112.5 E44.70051
G1 X123.86 Y112.832 E44.7232
G1 X123.743 Y113.144 E44.74581
G1 X123.555 Y113.421 E44.76853
G1 X123.307 Y113.644 E44.79115
G1 X123.013 Y113.803 E44.81383
G1 X122.639 Y113.9 E44.84005
G1 X99.888 Y113.9 E46.38372
G1 X99.007 Y113.76 E46.44425
G1 X98.592 Y113.625 E46.47386
G1 X97.895 Y113.27 E46.52693
G1 X97.54 Y113.012 E46.55671
G1 X96.988 Y112.46 E46.60967
G1 X96.73 Y112.105 E46.63945
G1 X96.375 Y111.408 E46.69252
G1 X96.24 Y110.993 E46.72213
G1 X96.117 Y110.22 E46.77524
G1 X96.117 Y109.78 E46.80509
G0 F6000 X96.512 Y109.843
G1 F1200 X96.635 Y109.07 E46.8582
G1 X96.732 Y108.773 E46.8794
G1 X97.087 Y108.076 E46.93247
G1 X97.271 Y107.823 E46.9537
G1 X97.823 Y107.271 E47.00667
G1 X98.076 Y107.087 E47.02789
G1 X98.773 Y106.732 E47.08097
G1 X99.07 Y106.635 E47.10217
G1 X99.92 Y106.5 E47.16056
G1 X122.5 Y106.5 E48.69263
G1 X122.779 Y106.54 E48.71175
G1 X123.036 Y106.656 E48.73089
G1 X123.251 Y106.839 E48.75004
G1 X123.405 Y107.075 E48.76916
G1 X123.5 Y107.384 E48.7911
G1 X123.5 Y112.5 E49.13822
G1 X123.46 Y112.779 E49.15735
G1 X123.344 Y113.036 E49.17648
G1 X123.161 Y113.251 E49.19563
G1 X122.925 Y113.405 E49.21475
G1 X122.616 Y113.5 E49.23669
G1 X99.92 Y113.5 E50.77663
G1 X99.07 Y113.365 E50.83502
G1 X98.773 Y113.268 E50.85622
G1 X98.076 Y112.913 E50.9093
G1 X97.823 Y112.729 E50.93052
G1 X97.271 Y112.177 E50.98349
G1 X97.087 Y111.924 E51.00471
G1 X96.732 Y111.227 E51.05779
G1 X96.635 Y110.93 E51.07899
G1 X96.512 Y110.157 E51.13209
G1 X96.512 Y109.843 E51.1534
G0 F6000 X96.892 Y110
G1 F1200 X97.045 Y109.04 E51.21936
G1 X97.486 Y108.174 E51.2853
G1 X98.175 Y107.485 E51.35141
G1 X99.04 Y107.045 E51.41726
G1 X99.951 Y106.9 E51.47985
G1 X122.5 Y106.9 E53.00981
G1 X122.715 Y106.94 E53.02465
G1 X122.901 Y107.053 E53.03942
G1 X123.034 Y107.226 E53.05422
G1 X123.1 Y107.5 E53.07335
G1 X123.1 Y112.5 E53.4126
G1 X123.06 Y112.715 E53.42744
G1 X122.947 Y112.901 E53.4422
G1 X122.774 Y113.034 E53.45701
G1 X122.5 Y113.1 E53.47613
G1 X99.951 Y113.1 E55.0061
G1 X99.04 Y112.955 E55.06869
G1 X98.174 Y112.514 E55.13463
G1 X97.485 Y111.825 E55.20074
G1 X97.045 Y110.96 E55.26659
G1 X96.892 Y110 E55.33255
